EOSHD C-LOG-and-Film-Profiles + LUT/C-LOG-and-Film-Profiles/LUT CINE 1 for Canon LOG.cube
TITLE "Generate by Resolve"
LUT_3D_SIZE 5
0 0 0
0.127108 0 0.0102388
0.52874 0 0.0173953
0.9131 0 0.032517
1 0 0.0746929
0 0.0883803 0
0.136141 0.104585 0
0.595972 0.0526589 0.0253605
1 0.019501 0.101976
1 0.0400854 0.185901
0 0.434272 0
0.155016 0.484108 0
0.628351 0.445686 0
1 0.407691 0
1 0.416876 0.0240024
0 0.807874 0
0.188952 0.846647 0
0.655268 0.801205 0
1 0.761608 0
1 0.76527 0
0.119066 1 0
0.302068 1 0
0.756207 1 0
1 1 0
1 0.99585 0
0 0.00453193 0.168246
0.0703899 0 0.177218
0.473243 0 0.185595
0.865171 0 0.208286
1 0 0.25835
0 0.103319 0.0876936
0.0979934 0.126436 0.145556
0.561715 0.0783856 0.214801
1 0.0483558 0.29456
1 0.0691997 0.378729
0 0.463386 0
0.123766 0.51284 0
0.594171 0.471489 0.0692149
1 0.433051 0.140551
1 0.442542 0.213382
0 0.833295 0
0.15462 0.872312 0
0.620401 0.826307 0
1 0.785534 0.00221256
1 0.787869 0.0678874
0.0826429 1 0
0.263783 1 0
0.716472 1 0
1 1 0
1 1 0.00682078
0 0.00949111 0.595209
0 0 0.603159
0.325444 0 0.61442
0.725902 0 0.64564
0.996017 0 0.702724
0 0.122621 0.528984
0 0.150393 0.591516
0.434821 0.106111 0.664515
0.886275 0.0785382 0.746731
1 0.0986954 0.830228
0 0.493584 0.361288
0 0.541527 0.443961
0.465446 0.497368 0.517098
0.906004 0.4589 0.588418
1 0.468879 0.661738
0 0.859632 0.236484
0.025864 0.898161 0.309758
0.491341 0.851865 0.380758
0.928145 0.809644 0.448325
1 0.810529 0.512551
0 1 0.261372
0.131228 1 0.32398
0.581964 1 0.38024
0.988418 1 0.417456
1 1 0.43534
0 0.0134127 0.971435
0 0 0.979858
0.197482 0 0.995178
0.608713 0 1
0.883284 0 1
0 0.143542 0.922225
0 0.175402 0.98883
0.327291 0.134981 1
0.779538 0.108217 1
1 0.127321 1
0 0.523507 0.763516
0 0.568475 0.843229
0.35465 0.522988 0.915022
0.795758 0.485069 0.986893
1 0.494972 1
0 0.885847 0.635004
0 0.924117 0.708034
0.379873 0.876814 0.778027
0.815381 0.83331 0.844297
1 0.832273 0.9066
0 1 0.656687
0.0160678 1 0.71754
0.463066 1 0.770062
0.860471 1 0.798215
1 1 0.813886
0 0.0167849 1
0 0 1
0.136034 0 1
0.555032 0 1
0.834119 0 1
0 0.165545 1
0 0.20145 1
0.282475 0.163973 1
0.735225 0.137697 1
1 0.154177 1
0 0.552285 0.993744
0 0.594507 1
0.306157 0.548287 1
0.747723 0.510842 1
1 0.520134 1
0 0.91136 0.861982
0 0.949294 0.934661
0.329946 0.900694 1
0.764263 0.855985 1
1 0.853117 1
0 1 0.879927
0 1 0.9393
0.402518 1 0.984771
0.793408 1 1
1 1 1
