EOSHD C-LOG-and-Film-Profiles + LUT/C-LOG-and-Film-Profiles/LUT CINE 2 for Canon LOG.cube
TITLE "Generate by Resolve"
LUT_3D_SIZE 33
0.0944228 0.0944228 0.0944228
0.0994888 0.0940261 0.0955062
0.105211 0.0934157 0.0966049
0.112322 0.0924544 0.0978256
0.122042 0.0906386 0.0991379
0.136324 0.0874189 0.100649
0.158801 0.0817121 0.102571
0.191318 0.0730144 0.105028
0.233799 0.061265 0.107958
0.285985 0.0465705 0.111345
0.346166 0.0294652 0.11516
0.408865 0.0116274 0.119112
0.467628 0 0.122988
0.519631 0 0.126665
0.566445 0 0.130236
0.610758 0 0.133806
0.652934 0 0.137301
0.693492 0 0.140887
0.732006 0 0.14464
0.768994 0 0.148501
0.80444 0 0.152377
0.838605 0 0.156435
0.871595 0 0.160784
0.903334 0 0.165454
0.93463 0 0.170352
0.965606 0 0.175387
0.996811 0 0.180911
1 0 0.187198
1 0 0.194018
1 0 0.201114
1 0 0.20856
1 0 0.216648
1 0 0.225315
0.0951247 0.0986496 0.0928969
0.100237 0.0983139 0.0940261
0.106004 0.0977493 0.0951705
0.113146 0.0968032 0.0964218
0.123018 0.09514 0.0978866
0.137484 0.0921035 0.0995804
0.160113 0.0865644 0.101656
0.192737 0.0779583 0.104219
0.23537 0.0663615 0.107286
0.287831 0.0519417 0.110964
0.348318 0.0351415 0.115084
0.411383 0.0176699 0.119402
0.470466 0.00149538 0.123583
0.522774 0 0.127581
0.570077 0 0.13164
0.614939 0 0.135744
0.657786 0 0.13991
0.698924 0 0.144091
0.738003 0 0.148409
0.775814 0 0.153094
0.812436 0 0.158145
0.84773 0 0.163333
0.881682 0 0.168643
0.914595 0 0.174487
0.94757 0 0.181048
0.980468 0 0.188022
1 0 0.195209
1 0 0.202884
1 0 0.211185
1 0 0.219989
1 0 0.228977
1 0 0.238437
1 0 0.248585
0.0956436 0.103273 0.090837
0.100862 0.103029 0.0920729
0.106828 0.102663 0.0934157
0.114153 0.1019 0.0948501
0.124117 0.100343 0.0964065
0.13875 0.0974594 0.0982528
0.161654 0.092195 0.100618
0.19469 0.0840162 0.103593
0.23769 0.0727703 0.107027
0.29041 0.0586099 0.110948
0.351232 0.0421302 0.115404
0.414755 0.0251469 0.120195
0.474586 0.00968948 0.125109
0.527535 0 0.129778
0.575326 0 0.13431
0.620844 0 0.139071
0.664622 0 0.144167
0.706935 0 0.149523
0.747082 0 0.15491
0.785901 0 0.160601
0.823819 0 0.166934
0.860899 0 0.173922
0.896757 0 0.181125
0.931197 0 0.18851
0.965652 0 0.196551
1 0 0.205112
1 0 0.213977
1 0 0.223102
1 0 0.232792
1 0 0.243153
1 0 0.253803
1 0 0.264607
1 0 0.276326
0.0959029 0.108751 0.0877852
0.10132 0.108705 0.0892195
0.107454 0.108507 0.0907301
0.115068 0.108034 0.0924544
0.125399 0.106859 0.0943923
0.140414 0.104356 0.0966201
0.163638 0.0993973 0.0992905
0.197009 0.0915541 0.102602
0.240558 0.0808728 0.106584
0.29395 0.0673838 0.111192
0.355383 0.0515145 0.116258
0.419486 0.0350958 0.121614
0.480064 0.0204013 0.127291
0.534066 0.00817884 0.132998
0.583017 0 0.138689
0.629526 0 0.144457
0.674403 0 0.150652
0.718227 0 0.157519
0.760296 0 0.164828
0.800885 0 0.172274
0.840223 0 0.180041
0.878691 0 0.188403
0.916167 0 0.197238
0.952224 0 0.206226
0.987945 0 0.215549
1 0 0.225513
1 0 0.236011
1 0 0.246754
1 0 0.257847
1 0 0.269673
1 0 0.282017
1 0 0.29456
1 0 0.307485
0.0955367 0.115831 0.0827192
0.101274 0.116106 0.0844739
0.107729 0.116228 0.086305
0.115648 0.11606 0.0883192
0.126497 0.115389 0.0907759
0.142092 0.113466 0.0935836
0.165957 0.109178 0.09691
0.199893 0.101884 0.100786
0.244038 0.0917983 0.105364
0.298283 0.0791485 0.110826
0.360845 0.0644236 0.117006
0.426093 0.0491493 0.123522
0.487633 0.0354162 0.130159
0.542885 0.024445 0.137102
0.593545 0.0158083 0.144518
0.641993 0.00839246 0.152209
0.688487 0.00184634 0.160021
0.7337 0 0.168276
0.777279 0 0.177096
0.819562 0 0.186252
0.860426 0 0.195544
0.900252 0 0.205264
0.939239 0 0.215595
0.976974 0 0.226276
1 0 0.237125
1 0 0.248508
1 0 0.260563
1 0 0.273014
1 0 0.285618
1 0.000595102 0.298756
1 0.0047303 0.312459
1 0.00898756 0.326314
1 0.0132296 0.340124
0.0936904 0.125307 0.0737163
0.0999313 0.126085 0.0759747
0.107057 0.126894 0.0784924
0.115694 0.127443 0.0812238
0.127016 0.127245 0.0841535
0.143282 0.125994 0.0876326
0.168124 0.122667 0.0919203
0.203235 0.116548 0.0969711
0.248417 0.1075 0.102602
0.303685 0.0958877 0.109087
0.36762 0.082536 0.11664
0.434684 0.0690623 0.124971
0.498009 0.0571145 0.133394
0.554711 0.0476081 0.141787
0.606928 0.040528 0.150759
0.656962 0.0346838 0.160037
0.705089 0.0297704 0.169467
0.751675 0.0256809 0.179095
0.796811 0.0231632 0.189471
0.840574 0.0215152 0.200107
0.882979 0.0206455 0.210956
0.924208 0.0205844 0.222065
0.96466 0.0217746 0.23389
1 0.0239719 0.246113
1 0.026688 0.25864
1 0.0298619 0.271412
1 0.0336767 0.284764
1 0.0377966 0.298619
1 0.0424506 0.312551
1 0.0470436 0.326726
1 0.0519417 0.341207
1 0.0570535 0.355901
1 0.0621805 0.370611
0.0893111 0.139132 0.0578317
0.0961013 0.140475 0.0606394
0.104097 0.142138 0.0640116
0.113741 0.143694 0.0677653
0.126223 0.144656 0.0718395
0.143481 0.144396 0.0763256
0.169436 0.142184 0.0817273
0.206104 0.137636 0.0883497
0.253239 0.130541 0.0959182
0.310231 0.120638 0.104112
0.375586 0.108705 0.1131
0.444099 0.0966812 0.122866
0.509102 0.0864271 0.132967
0.567391 0.0785077 0.142977
0.620829 0.0726177 0.15314
0.672297 0.0682231 0.163867
0.722118 0.0650187 0.175006
0.770367 0.0625772 0.186282
0.816724 0.0612955 0.197879
0.862074 0.0612192 0.210101
0.906294 0.0621653 0.222751
0.949157 0.0637522 0.235508
0.990906 0.0662242 0.248615
1 0.0698253 0.262242
1 0.0739605 0.276188
1 0.0783703 0.290211
1 0.0831159 0.304494
1 0.0879988 0.319097
1 0.0933852 0.333776
1 0.0984054 0.348363
1 0.103532 0.363088
1 0.108248 0.377386
1 0.112963 0.391669
0.0821851 0.158663 0.033875
0.090074 0.161089 0.0377813
0.09897 0.163653 0.0420539
0.110002 0.166598 0.0471809
0.124224 0.169314 0.0530251
0.143404 0.170977 0.0594186
0.170947 0.170352 0.0664225
0.209003 0.167178 0.074403
0.257664 0.161608 0.0835126
0.316365 0.153429 0.0934157
0.38323 0.142992 0.103914
0.453086 0.132326 0.115038
0.519615 0.123583 0.12665
0.579614 0.117357 0.138354
0.634546 0.112993 0.150027
0.687434 0.110018 0.162158
0.738842 0.108385 0.174884
0.788785 0.107652 0.187869
0.836576 0.10779 0.2009
0.883299 0.109087 0.214496
0.92871 0.111238 0.228351
0.972763 0.114 0.242283
1 0.117617 0.256519
1 0.122011 0.27097
1 0.126894 0.285634
1 0.132006 0.300374
1 0.137133 0.315038
1 0.142 0.329625
1 0.147189 0.344091
1 0.152026 0.358511
1 0.156558 0.372625
1 0.160647 0.386282
1 0.164401 0.399634
0.0734264 0.184955 0.00296025
0.0832074 0.189288 0.00875868
0.093904 0.193652 0.014847
0.106264 0.197925 0.0213016
0.121889 0.202029 0.0285344
0.142672 0.205295 0.0365454
0.171862 0.206317 0.045182
0.211337 0.204562 0.0545815
0.261418 0.200427 0.0651102
0.32166 0.193774 0.0765698
0.390173 0.185 0.0887007
0.461463 0.175769 0.101259
0.529412 0.168444 0.114305
0.591058 0.163867 0.127657
0.647639 0.161151 0.140978
0.701915 0.159548 0.154498
0.754604 0.159213 0.168521
0.805951 0.159884 0.182895
0.855116 0.161395 0.197299
0.902785 0.163653 0.211841
0.949126 0.166705 0.226612
0.994141 0.170443 0.24152
1 0.17467 0.256367
1 0.179309 0.271061
1 0.184085 0.285618
1 0.188952 0.300114
1 0.193744 0.314443
1 0.198001 0.328405
1 0.202197 0.341894
1 0.205905 0.355184
1 0.209293 0.368154
1 0.212528 0.380972
1 0.214908 0.392935
0.0649577 0.21973 0
0.0762036 0.225513 0
0.0885939 0.231586 0
0.102525 0.23743 0
0.119509 0.242893 0
0.141756 0.247623 0.00831617
0.172641 0.25034 0.0186465
0.213672 0.250141 0.0296178
0.26511 0.247364 0.0414893
0.32694 0.242283 0.0545205
0.397147 0.235203 0.0683604
0.470008 0.227543 0.0824903
0.5393 0.221576 0.0968795
0.602274 0.218311 0.111543
0.660273 0.217029 0.126299
0.71577 0.216648 0.141039
0.76936 0.217212 0.155947
0.821454 0.218631 0.171084
0.871199 0.220706 0.186069
0.919112 0.223209 0.200855
0.965667 0.22649 0.215839
1 0.229923 0.230442
1 0.233875 0.245029
1 0.238117 0.259312
1 0.242145 0.273136
1 0.245945 0.286549
1 0.249683 0.299809
1 0.252995 0.312856
1 0.256138 0.325277
1 0.25861 0.337346
1 0.261006 0.34931
1 0.263157 0.361059
1 0.264927 0.372396
0.0572976 0.262043 0
0.0699016 0.269184 0
0.0838331 0.276783 0
0.0994583 0.284337 0
0.117937 0.291295 0
0.141604 0.297444 0
0.174075 0.301747 0
0.216693 0.303136 0.00108339
0.269398 0.30161 0.0142214
0.332647 0.297963 0.0286717
0.404059 0.292088 0.0437171
0.478294 0.285801 0.0592203
0.548684 0.280919 0.0747082
0.612467 0.278477 0.0901808
0.671199 0.277913 0.105669
0.727367 0.278218 0.12108
0.781323 0.279133 0.136355
0.833371 0.280507 0.151446
0.883055 0.282536 0.166354
0.930922 0.284977 0.181094
0.976837 0.287617 0.195438
1 0.290272 0.209277
1 0.293126 0.222736
1 0.296361 0.236027
1 0.299413 0.248875
1 0.302068 0.261143
1 0.304555 0.273152
1 0.306752 0.285084
1 0.309026 0.296651
1 0.310689 0.307881
1 0.312001 0.318791
1 0.313344 0.329702
1 0.314626 0.340566
0.0531472 0.309941 0
0.0671702 0.318502 0
0.0825513 0.327565 0
0.0998245 0.336751 0
0.119936 0.345342 0
0.144976 0.352865 0
0.178744 0.358465 0
0.222889 0.361379 0
0.277089 0.361364 0
0.341176 0.358557 0.0043183
0.41352 0.353613 0.0202945
0.488502 0.348074 0.0365454
0.559487 0.343771 0.0526131
0.623468 0.341543 0.0682994
0.682078 0.340841 0.08365
0.737987 0.340902 0.0988174
0.791501 0.341375 0.113649
0.842985 0.342184 0.128176
0.891524 0.343069 0.141955
0.938109 0.344228 0.155398
0.983017 0.345861 0.16875
1 0.347539 0.181598
1 0.349157 0.193835
1 0.351171 0.20589
1 0.353231 0.217746
1 0.355077 0.229206
1 0.356695 0.24036
1 0.358053 0.251453
1 0.359716 0.262379
1 0.360922 0.273182
1 0.362005 0.283848
1 0.363043 0.294453
1 0.363973 0.304967
0.0566873 0.362158 0
0.0722515 0.372259 0
0.0889601 0.382635 0
0.107576 0.393164 0
0.129107 0.403174 0
0.155261 0.411826 0
0.189975 0.418357 0
0.234653 0.42182 0
0.289387 0.422324 0
0.353933 0.419989 0
0.426337 0.415091 0.00238041
0.501137 0.409369 0.0184329
0.571832 0.404791 0.034226
0.635386 0.402136 0.049485
0.693202 0.400641 0.0640421
0.748043 0.399603 0.0781262
0.80061 0.39913 0.0920119
0.851057 0.398917 0.105501
0.89865 0.398856 0.118334
0.944167 0.398947 0.130724
0.987961 0.399466 0.142947
1 0.400214 0.154864
1 0.401038 0.166308
1 0.402152 0.177462
1 0.403433 0.18854
1 0.40473 0.199466
1 0.405921 0.210193
1 0.406867 0.220859
1 0.407965 0.231235
1 0.408942 0.241794
1 0.409506 0.251942
1 0.410117 0.262135
1 0.410697 0.272297
0.0684825 0.416754 0
0.0854047 0.428214 0
0.103166 0.439643 0
0.122591 0.45098 0
0.144854 0.461738 0
0.17174 0.471092 0
0.206683 0.477882 0
0.251514 0.481483 0
0.306203 0.481941 0
0.370443 0.479286 0
0.442298 0.473854 0
0.516152 0.467185 0.00640879
0.585748 0.461509 0.0211032
0.64831 0.457847 0.0353552
0.70515 0.45539 0.0489509
0.758831 0.453208 0.0618753
0.810132 0.451469 0.0744945
0.859373 0.450034 0.0867628
0.906218 0.449226 0.0988479
0.950698 0.448295 0.110216
0.993545 0.447852 0.121492
1 0.447898 0.132708
1 0.448249 0.143679
1 0.448951 0.154421
1 0.449821 0.165087
1 0.450767 0.175647
1 0.451621 0.186038
1 0.452186 0.196323
1 0.453086 0.206516
1 0.45362 0.216632
1 0.454047 0.226642
1 0.454353 0.23653
1 0.454597 0.246357
0.0870832 0.473686 0
0.104753 0.485908 0
0.123079 0.497887 0
0.142657 0.509392 0
0.164767 0.519982 0
0.191226 0.528923 0
0.225605 0.535119 0
0.269902 0.538201 0
0.3234 0.537484 0
0.386557 0.533745 0
0.457465 0.527367 0
0.530312 0.519677 0
0.598688 0.512795 0.00982681
0.660029 0.507912 0.0228733
0.715908 0.504479 0.0354925
0.76878 0.501488 0.0476081
0.819196 0.498878 0.0593576
0.86775 0.496757 0.0709392
0.913893 0.495247 0.0823224
0.958144 0.494072 0.093431
1 0.493278 0.104356
1 0.492927 0.115175
1 0.492927 0.125811
1 0.493294 0.136202
1 0.493782 0.146487
1 0.494347 0.15668
1 0.494896 0.166751
1 0.49514 0.17673
1 0.495689 0.186557
1 0.495796 0.196262
1 0.49601 0.206043
1 0.49601 0.215625
1 0.495888 0.225101
0.108202 0.530938 0
0.125658 0.542916 0
0.143709 0.554635 0
0.162829 0.565682 0
0.184115 0.575448 0
0.209644 0.583459 0
0.243214 0.588846 0
0.286397 0.590814 0
0.338949 0.589151 0
0.400854 0.584161 0
0.470619 0.576623 0
0.542565 0.568048 0
0.610117 0.560327 0
0.670573 0.554559 0.0105898
0.725673 0.550378 0.022446
0.778027 0.546853 0.0340429
0.828 0.543801 0.0453346
0.875944 0.54107 0.0563211
0.92163 0.539101 0.0672465
0.965545 0.537591 0.0780346
1 0.536446 0.0885939
1 0.535714 0.0990311
1 0.535378 0.109331
1 0.535439 0.119417
1 0.535576 0.129366
1 0.535805 0.139208
1 0.536034 0.148974
1 0.535973 0.158633
1 0.536202 0.168139
1 0.53608 0.177615
1 0.535882 0.186999
1 0.535576 0.196277
1 0.53518 0.205447
0.129717 0.586725 0
0.146212 0.597757 0
0.163149 0.608377 0
0.181292 0.618433 0
0.201587 0.627207 0
0.225956 0.634058 0
0.258061 0.637995 0
0.300069 0.638788 0
0.351843 0.636316 0
0.412863 0.630457 0
0.481743 0.622049 0
0.553033 0.612818 0
0.620127 0.604623 0
0.680156 0.598444 0
0.734874 0.593851 0.0099794
0.786847 0.58996 0.02121
0.836515 0.586603 0.0321965
0.884276 0.583673 0.0429847
0.929671 0.581415 0.0536202
0.973251 0.579583 0.0640726
1 0.578119 0.0743267
1 0.577035 0.0844129
1 0.576364 0.0943618
1 0.576104 0.104158
1 0.575952 0.113787
1 0.575845 0.123308
1 0.575753 0.132738
1 0.575387 0.142107
1 0.575311 0.151308
1 0.574868 0.160449
1 0.574334 0.169497
1 0.573709 0.178439
1 0.572992 0.18732
0.148486 0.638254 0
0.163943 0.648264 0
0.17966 0.657633 0
0.196597 0.666499 0
0.215961 0.674327 0
0.239506 0.680369 0
0.270924 0.683619 0
0.312261 0.683726 0
0.363409 0.680644 0
0.424018 0.674372 0
0.492485 0.665553 0
0.563378 0.655909 0
0.630121 0.647379 0
0.689815 0.640864 0
0.744137 0.635874 0
0.795651 0.631525 0.00932326
0.845121 0.627955 0.0200961
0.892454 0.624613 0.0304723
0.937377 0.621897 0.0406348
0.980575 0.619669 0.0507057
1 0.618067 0.0608072
1 0.616602 0.0705272
1 0.615549 0.0800946
1 0.614939 0.0895247
1 0.614725 0.0991073
1 0.614328 0.108324
1 0.613886 0.117418
1 0.613199 0.126452
1 0.612802 0.135348
1 0.612055 0.144183
1 0.611215 0.152926
1 0.610285 0.161578
1 0.609293 0.170153
0.165057 0.685634 0
0.179644 0.694759 0
0.194522 0.703304 0
0.210559 0.711269 0
0.229023 0.718212 0
0.252155 0.723827 0
0.282979 0.726482 0
0.323857 0.726131 0
0.374624 0.722667 0
0.434913 0.716075 0
0.503029 0.706889 0
0.573526 0.696864 0
0.639948 0.688014 0
0.699321 0.681163 0
0.753292 0.675853 0
0.804578 0.67126 0
0.853635 0.667277 0.00915541
0.900755 0.663722 0.0193179
0.945464 0.660777 0.0292668
0.988403 0.658305 0.0390784
1 0.656229 0.0487068
1 0.654521 0.0581826
1 0.653208 0.0674907
1 0.652293 0.0766155
1 0.651499 0.0856184
1 0.650782 0.0945296
1 0.650172 0.103441
1 0.649302 0.112291
1 0.648615 0.120897
1 0.647593 0.129458
1 0.646494 0.137942
1 0.645335 0.146365
1 0.644083 0.154696
0.17937 0.729305 0
0.193317 0.737789 0
0.207736 0.745892 0
0.223392 0.753445 0
0.241596 0.760128 0
0.264271 0.765301 0
0.294942 0.767803 0
0.335485 0.767117 0
0.385885 0.763287 0
0.445853 0.756374 0
0.513634 0.746868 0
0.583795 0.736492 0
0.649866 0.727306 0
0.708934 0.72015 0
0.762615 0.714519 0
0.813565 0.709621 0
0.862287 0.705287 0
0.909102 0.701442 0.0091249
0.953521 0.698192 0.0187686
0.996124 0.695384 0.0282444
1 0.692973 0.0375525
1 0.690944 0.0466926
1 0.689311 0.0556954
1 0.688106 0.0645151
1 0.687007 0.073228
1 0.686 0.0818341
1 0.685206 0.0905623
1 0.684016 0.0991073
1 0.683085 0.107454
1 0.681804 0.115755
1 0.680461 0.123995
1 0.679057 0.132174
1 0.677653 0.140352
0.19324 0.77116 0
0.206775 0.779248 0
0.220874 0.786999 0
0.236133 0.794186 0
0.253803 0.800336 0
0.276051 0.805066 0
0.306493 0.80734 0
0.346609 0.806226 0
0.396658 0.802045 0
0.456306 0.794812 0
0.523796 0.785 0
0.593637 0.774319 0
0.659388 0.764797 0
0.718135 0.757321 0
0.771572 0.751476 0
0.822248 0.746273 0
0.870665 0.74165 0
0.91722 0.73753 0
0.961379 0.734035 0.00895705
1 0.730907 0.0181277
1 0.728206 0.0271305
1 0.725887 0.0359808
1 0.72398 0.0446937
1 0.722499 0.053254
1 0.721172 0.0617227
1 0.719905 0.0700847
1 0.718914 0.0786297
1 0.717418 0.0868544
1 0.716258 0.0949874
1 0.714778 0.103075
1 0.713207 0.111086
1 0.711711 0.119173
1 0.710048 0.127092
0.206455 0.811063 0
0.219623 0.818769 0
0.233387 0.8262 0
0.248356 0.833082 0
0.265843 0.839048 0
0.287846 0.843534 0
0.317891 0.845411 0
0.357778 0.844083 0
0.407507 0.839582 0
0.466835 0.832013 0
0.534005 0.821897 0
0.60354 0.81091 0
0.668971 0.801053 0
0.727382 0.793256 0
0.780423 0.786999 0
0.830762 0.78146 0
0.878843 0.776516 0
0.925124 0.772122 0
0.969085 0.768429 0
1 0.765042 0.0087129
1 0.762081 0.0174716
1 0.759518 0.0260777
1 0.757351 0.0345312
1 0.755627 0.0428473
1 0.754253 0.0512703
1 0.752834 0.0594797
1 0.751369 0.0675364
1 0.749645 0.0755322
1 0.748196 0.0833753
1 0.746654 0.0914168
1 0.744808 0.0991531
1 0.742855 0.106783
1 0.740841 0.114351
0.219669 0.849653 0
0.232486 0.857023 0
0.245914 0.864118 0
0.260578 0.870695 0
0.27776 0.876356 0
0.299428 0.880507 0
0.329137 0.882048 0
0.368734 0.880415 0
0.418158 0.875624 0
0.47715 0.86772 0
0.543984 0.857267 0
0.613199 0.845945 0
0.678325 0.835798 0
0.736446 0.827695 0
0.789181 0.821149 0
0.839231 0.81532 0
0.887068 0.810132 0
0.933242 0.805631 0
0.976806 0.801526 0
1 0.797879 0.000137331
1 0.794675 0.00863661
1 0.791882 0.0170138
1 0.789502 0.0252689
1 0.787808 0.0336156
1 0.785992 0.0415808
1 0.784222 0.0494392
1 0.782452 0.0571908
1 0.780514 0.0649882
1 0.778988 0.0727398
1 0.776944 0.0802777
1 0.774823 0.0877394
1 0.772869 0.0953689
1 0.770687 0.10277
0.232425 0.886412 0
0.244938 0.893462 0
0.258045 0.900221 0
0.272389 0.906493 0
0.289265 0.911849 0
0.310613 0.915694 0
0.340002 0.916899 0
0.379278 0.914961 0
0.428626 0.910079 0
0.487312 0.901869 0
0.553857 0.891127 0
0.622782 0.879515 0
0.687617 0.869078 0
0.745464 0.860716 0
0.797971 0.853925 0
0.847776 0.847852 0
0.895445 0.842496 0
0.941299 0.837659 0
0.984619 0.833341 0
1 0.82948 0
1 0.826047 0.000854505
1 0.822995 0.00898756
1 0.820569 0.0171817
1 0.818326 0.024979
1 0.816205 0.0326543
1 0.814176 0.0402533
1 0.812421 0.0480201
1 0.810162 0.0554818
1 0.808225 0.0628367
1 0.806149 0.0703441
1 0.803937 0.0777142
1 0.801587 0.084947
1 0.799207 0.092134
0.244785 0.922164 0
0.256992 0.928908 0
0.269764 0.935347 0
0.283772 0.941283 0
0.300328 0.946319 0
0.32137 0.949844 0
0.350454 0.950759 0
0.38941 0.948486 0
0.438315 0.94316 0
0.496895 0.934859 0
0.563195 0.923858 0
0.631876 0.912016 0
0.696452 0.901335 0
0.754055 0.892714 0
0.806348 0.88571 0
0.856168 0.879667 0
0.903517 0.87396 0
0.948974 0.868742 0
0.99202 0.864149 0
1 0.860075 0
1 0.856504 0
1 0.853162 0.000961318
1 0.850233 0.00865187
1 0.84773 0.0162051
1 0.845655 0.0239261
1 0.843412 0.0312963
1 0.841184 0.0385901
1 0.838895 0.0460365
1 0.836896 0.0533303
1 0.834501 0.060502
1 0.832074 0.0676585
1 0.829847 0.0750134
1 0.827344 0.0820783
0.256321 0.956695 0
0.268208 0.963119 0
0.280674 0.969253 0
0.294392 0.974884 0
0.310643 0.979614 0
0.331395 0.982849 0
0.36022 0.983505 0
0.399023 0.981094 0
0.447776 0.975601 0
0.505928 0.966873 0
0.571954 0.955627 0
0.640406 0.943542 0
0.704784 0.932647 0
0.762264 0.923903 0
0.814435 0.916777 0
0.863737 0.910201 0
0.91078 0.904204 0
0.955932 0.898695 0
0.998978 0.894087 0
1 0.889677 0
1 0.885695 0
1 0.8822 0
1 0.879255 0.000167849
1 0.876554 0.0075227
1 0.874037 0.0148013
1 0.871778 0.0221561
1 0.86952 0.0294194
1 0.866926 0.0365606
1 0.864759 0.0436866
1 0.862455 0.0509651
1 0.859922 0.0579995
1 0.857359 0.0650339
1 0.85507 0.0723125
0.266972 0.990112 0
0.278569 0.996246 0
0.290761 1 0
0.304219 1 0
0.320226 1 0
0.340734 1 0
0.369299 1 0
0.408026 1 0
0.456382 1 0
0.514336 0.998047 0
0.580118 0.986542 0
0.64831 0.974212 0
0.712657 0.963272 0
0.769726 0.954131 0
0.821454 0.946548 0
0.870481 0.939712 0
0.91754 0.933745 0
0.962478 0.927993 0
1 0.922896 0
1 0.918303 0
1 0.914382 0
1 0.910643 0
1 0.907332 0
1 0.904768 0
1 0.902098 0.00572213
1 0.899565 0.0128023
1 0.8972 0.0199741
1 0.894697 0.0271763
1 0.892393 0.034165
1 0.889906 0.0412757
1 0.88751 0.0484474
1 0.884932 0.0554513
1 0.882353 0.0624552
0.276402 1 0
0.287755 1 0
0.299687 1 0
0.312886 1 0
0.328664 1 0
0.349157 1 0
0.377569 1 0
0.415793 1 0
0.463859 1 0
