EOSHD C-LOG-and-Film-Profiles + LUT/C-LOG-and-Film-Profiles/LUT CINE 2 for Canon LOG.cube
TITLE "Generate by Resolve"
LUT_3D_SIZE 9
0.0944228 0.0944228 0.0944228
0.122042 0.0906386 0.0991379
0.233799 0.061265 0.107958
0.467628 0 0.122988
0.652934 0 0.137301
0.80444 0 0.152377
0.93463 0 0.170352
1 0 0.194018
1 0 0.225315
0.0955367 0.115831 0.0827192
0.126497 0.115389 0.0907759
0.244038 0.0917983 0.105364
0.487633 0.0354162 0.130159
0.688487 0.00184634 0.160021
0.860426 0 0.195544
1 0 0.237125
1 0 0.285618
1 0.0132296 0.340124
0.0734264 0.184955 0.00296025
0.121889 0.202029 0.0285344
0.261418 0.200427 0.0651102
0.529412 0.168444 0.114305
0.754604 0.159213 0.168521
0.949126 0.166705 0.226612
1 0.184085 0.285618
1 0.202197 0.341894
1 0.214908 0.392935
0.0566873 0.362158 0
0.129107 0.403174 0
0.289387 0.422324 0
0.571832 0.404791 0.034226
0.80061 0.39913 0.0920119
0.987961 0.399466 0.142947
1 0.403433 0.18854
1 0.407965 0.231235
1 0.410697 0.272297
0.129717 0.586725 0
0.201587 0.627207 0
0.351843 0.636316 0
0.620127 0.604623 0
0.836515 0.586603 0.0321965
1 0.578119 0.0743267
1 0.575952 0.113787
1 0.575311 0.151308
1 0.572992 0.18732
0.19324 0.77116 0
0.253803 0.800336 0
0.396658 0.802045 0
0.659388 0.764797 0
0.870665 0.74165 0
1 0.728206 0.0271305
1 0.721172 0.0617227
1 0.716258 0.0949874
1 0.710048 0.127092
0.244785 0.922164 0
0.300328 0.946319 0
0.438315 0.94316 0
0.696452 0.901335 0
0.903517 0.87396 0
1 0.856504 0
1 0.845655 0.0239261
1 0.836896 0.0533303
1 0.827344 0.0820783
0.285679 1 0
0.337285 1 0
0.471321 1 0
0.725536 1 0
0.928847 0.990463 0
1 0.970001 0
1 0.957107 0
1 0.947448 0.0151217
1 0.937789 0.0437781
0.313115 1 0
0.361151 1 0
0.492546 1 0
0.745037 1 0
0.947723 1 0
1 1 0
1 1 0
1 1 0
1 1 0.00370794
0.0850996 0.0961929 0.120821
0.112764 0.0924697 0.125582
0.224781 0.0633555 0.134661
0.459083 0 0.150149
0.645014 0 0.165087
0.797513 0 0.18117
0.929427 0 0.20087
1 0 0.227314
1 0 0.261097
0.0871443 0.118547 0.110048
0.118959 0.118959 0.118959
0.237934 0.096788 0.134981
0.483513 0.0424048 0.161761
0.687007 0.0114748 0.194263
0.861433 0 0.232273
1 0.00112917 0.276158
1 0.0137026 0.326909
1 0.0318303 0.383352
0.0706493 0.193286 0.0359045
0.121584 0.212818 0.0639506
0.263523 0.213626 0.102937
0.534096 0.184222 0.154711
0.76141 0.177111 0.211032
0.956924 0.185595 0.27013
1 0.20238 0.328542
1 0.218921 0.383246
1 0.230121 0.432761
0.0614939 0.378058 0
0.135836 0.420996 0
0.297261 0.441291 0.0141909
0.578958 0.423011 0.0770733
0.806012 0.415641 0.133135
0.991669 0.414267 0.182376
1 0.416922 0.226658
1 0.421027 0.268925
1 0.423316 0.309529
0.135622 0.603723 0
0.205692 0.642405 0
0.354879 0.650462 0
0.622538 0.618128 0.024918
0.838361 0.599542 0.069749
1 0.590341 0.111177
1 0.58764 0.150103
1 0.586694 0.18732
1 0.583886 0.222843
0.195224 0.784253 0
0.255406 0.813031 0
0.397818 0.814313 0
0.660029 0.776532 0
0.870634 0.752728 0.0256657
1 0.738933 0.0624857
1 0.731502 0.0966812
1 0.726238 0.12958
1 0.719539 0.161212
0.245228 0.9337 0
0.300267 0.957351 0
0.43772 0.953674 0
0.695537 0.911513 0
0.90222 0.883772 0
1 0.865858 0.0271
1 0.854658 0.0575418
1 0.84564 0.0866865
1 0.83592 0.115282
0.284657 1 0
0.335805 1 0
0.469337 1 0
0.723323 1 0
0.926421 0.999146 0
1 0.978546 0
1 0.965621 0.0197452
1 0.9561 0.0483864
1 0.94548 0.0760967
0.310811 1 0
0.358663 1 0
0.489967 1 0
0.742473 1 0
0.945296 1 0
1 1 0
1 1 0
1 1 0.00848402
1 1 0.0368658
0.0389258 0.0999161 0.235218
0.0666972 0.0962844 0.240101
0.178958 0.0674144 0.249409
0.413809 0.00230411 0.265461
0.600656 0 0.281315
0.754482 0 0.298726
0.888334 0 0.320363
1 0 0.349493
1 0 0.385733
0.0420386 0.123339 0.225528
0.0748302 0.124727 0.235401
0.195529 0.10428 0.253162
0.443809 0.0525978 0.282643
0.649592 0.0239567 0.317433
0.826398 0.0137331 0.357824
0.985229 0.0186923 0.404425
1 0.0335088 0.457389
1 0.0527962 0.515007
0.0314641 0.203998 0.157305
0.0848707 0.226001 0.187823
0.229297 0.229297 0.229297
0.502052 0.202075 0.283253
0.731243 0.196841 0.341436
0.927672 0.206256 0.401465
1 0.222583 0.459434
1 0.23743 0.512428
1 0.246921 0.56025
0.0307622 0.397223 0.0341192
0.106615 0.441688 0.087068
0.268101 0.462028 0.145617
0.548043 0.441993 0.206744
0.773297 0.432822 0.26099
0.95761 0.430121 0.308904
1 0.432364 0.352789
1 0.435904 0.394491
1 0.437659 0.434577
0.104707 0.622705 0.0123293
0.172976 0.659586 0.0576944
0.320806 0.666285 0.102571
0.587671 0.633173 0.150637
0.80293 0.614008 0.194903
0.980423 0.604471 0.235996
1 0.601282 0.274418
1 0.599588 0.310903
1 0.596567 0.346197
0.160372 0.799283 0
0.220005 0.827527 0.0283513
0.361913 0.828305 0.0673228
0.623621 0.790021 0.110216
0.833722 0.765698 0.149325
1 0.751263 0.185489
1 0.743633 0.219486
1 0.737987 0.252003
1 0.730831 0.283177
0.208362 0.946746 0
0.263157 0.970138 0.00868238
0.400214 0.966064 0.0427863
0.657664 0.923537 0.0814374
0.86389 0.895338 0.116655
1 0.876997 0.148928
1 0.865476 0.179049
1 0.856245 0.20798
1 0.846387 0.236454
0.246647 1 0
0.297292 1 0
0.430564 1 0.0155337
0.684169 1 0.0503395
0.887068 1 0.0822614
1 0.988998 0.112184
1 0.976074 0.140887
1 0.966644 0.169619
1 0.955947 0.197253
0.271565 1 0
0.31928 1 0
0.450507 1 0
0.703059 1 0.0113985
0.90605 1 0.0433967
1 1 0.0724804
1 1 0.101289
1 1 0.129641
1 1 0.158022
0 0.106432 0.476997
0 0.103014 0.482078
0.0799268 0.0744488 0.491691
0.315328 0.00985733 0.508278
0.503075 0 0.525048
0.658701 0 0.544244
0.795193 0 0.568505
0.929473 0 0.599939
1 0 0.63859
0 0.131289 0.468727
0 0.1337 0.479637
0.100084 0.114885 0.499016
0.351217 0.0660563 0.53135
0.559487 0.0398871 0.568627
0.738766 0.0321508 0.61149
0.900069 0.0395819 0.660563
1 0.0560006 0.715129
1 0.076112 0.773571
0 0.218311 0.406882
0 0.242725 0.439796
0.142443 0.248493 0.483757
0.417823 0.223896 0.540322
0.648615 0.220264 0.600122
0.845167 0.229786 0.660258
1 0.244709 0.716808
1 0.25745 0.767697
1 0.265568 0.81416
0 0.419837 0.291981
0.0239261 0.465034 0.345678
0.185046 0.485023 0.403861
0.463783 0.463783 0.463783
0.687236 0.452811 0.516243
0.870314 0.448859 0.562905
1 0.450217 0.60589
1 0.453178 0.647013
1 0.454414 0.686564
0.0197299 0.643793 0.268666
0.0860761 0.678737 0.312093
0.233051 0.684581 0.35613
0.499474 0.651026 0.403738
0.714199 0.631312 0.447471
0.891173 0.621271 0.488029
1 0.617563 0.525963
1 0.615366 0.561929
1 0.611872 0.59675
0.0717021 0.816663 0.244251
0.130816 0.844388 0.280461
0.272221 0.844648 0.318914
0.533394 0.805844 0.361288
0.743282 0.781308 0.400183
0.915404 0.766415 0.435889
1 0.75845 0.469566
1 0.752361 0.501625
1 0.744778 0.532387
0.118212 0.962646 0.227924
0.172274 0.985321 0.259098
0.309194 0.981094 0.293065
0.566293 0.938216 0.331365
0.77203 0.909529 0.36611
0.940352 0.890822 0.398016
1 0.879011 0.427832
1 0.869581 0.456565
1 0.859632 0.484947
0.155032 1 0.207156
0.205173 1 0.234409
0.338216 1 0.2645
0.591577 1 0.299046
0.794308 1 0.3308
0.960601 1 0.360662
1 0.989441 0.389502
1 0.980041 0.418265
1 0.969223 0.445777
0.178897 1 0.17319
0.22649 1 0.197879
0.357687 1 0.226139
0.610315 1 0.259953
0.812421 1 0.291066
0.978775 1 0.321004
1 1 0.349798
1 1 0.378164
1 1 0.406546
0 0.111833 0.666239
0 0.108675 0.67158
0.00317388 0.0805676 0.681651
0.239216 0.0166323 0.698894
0.42797 0 0.716655
0.585321 0 0.737575
0.72459 0 0.76463
0.861357 0 0.798535
1 0 0.839658
0 0.13843 0.659709
0 0.142306 0.672084
0.0279088 0.125597 0.693568
0.281468 0.0791791 0.728313
0.492195 0.0554818 0.768063
0.673854 0.0501106 0.813291
0.837476 0.0598764 0.864698
0.996857 0.078233 0.921218
1 0.0985122 0.979812
0 0.232715 0.605127
0 0.259602 0.640497
0.0789654 0.267887 0.686992
0.356451 0.245396 0.745663
0.587945 0.242466 0.806165
0.784161 0.251652 0.865965
0.951415 0.265064 0.921004
1 0.276295 0.970397
1 0.283177 1
0 0.441321 0.497307
0 0.487572 0.552056
0.123919 0.506767 0.60943
0.400931 0.483803 0.667643
0.622492 0.470954 0.718227
0.804486 0.465904 0.76379
0.959365 0.466941 0.806455
1 0.469337 0.847013
1 0.470069 0.886076
0 0.662531 0.471244
0.0209354 0.696468 0.513664
0.167254 0.70164 0.557046
0.43299 0.667399 0.603967
0.647028 0.647028 0.647028
0.823499 0.636484 0.687083
0.973327 0.632441 0.724681
1 0.629831 0.760235
1 0.625681 0.794415
0.00517281 0.833021 0.44445
0.0637675 0.860212 0.480125
0.204639 0.859953 0.518059
0.465293 0.820615 0.559899
0.674556 0.795468 0.598184
0.846418 0.780301 0.633616
0.991958 0.771984 0.666941
1 0.765408 0.698528
1 0.757458 0.728908
0.0499275 0.977234 0.426368
0.103563 0.999466 0.457099
0.24007 0.994858 0.490669
0.496788 0.951583 0.528572
0.702068 0.922438 0.56286
0.870039 0.90338 0.594415
1 0.89131 0.623987
1 0.881727 0.652552
1 0.871717 0.680873
0.0854047 1 0.404257
0.134981 1 0.43093
0.267796 1 0.460792
0.520928 1 0.495125
0.723552 1 0.526757
0.889815 1 0.556603
1 1 0.585565
1 0.991272 0.613352
1 0.981338 0.641733
0.108202 1 0.369223
0.155688 1 0.393805
0.286915 1 0.42208
0.539696 1 0.456046
0.74165 1 0.487022
0.908003 1 0.51696
1 1 0.545754
1 1 0.574121
1 1 0.602502
0 0.116472 0.817548
0 0.113558 0.823133
0 0.0860151 0.833783
0.179416 0.0229496 0.851881
0.369574 0 0.871046
0.528862 0 0.893919
0.670848 0 0.923674
0.810056 0 0.960037
0.956863 0 1
0 0.145022 0.812985
0 0.150622 0.82707
0 0.136629 0.851286
0.228809 0.0926375 0.888457
0.441962 0.0713664 0.930617
0.626245 0.0686198 0.978485
0.791989 0.0805066 1
0.952438 0.0999313 1
1 0.119539 1
0 0.246738 0.76582
0 0.27602 0.803601
0.0314794 0.286519 0.852293
0.310872 0.265949 0.912886
0.543542 0.264195 0.974563
0.738994 0.272618 1
0.904555 0.284321 1
1 0.293873 1
1 0.299413 1
0 0.462837 0.665492
0 0.508965 0.720119
0.0775464 0.526528 0.77586
0.352758 0.501747 0.832258
0.573205 0.48777 0.881727
0.754604 0.482155 0.926711
0.908934 0.482612 0.968811
1 0.484352 1
1 0.48455 1
0 0.680522 0.635904
0 0.712917 0.676799
0.11696 0.717479 0.719539
0.382254 0.682795 0.766033
0.595911 0.662028 0.808698
0.771862 0.650965 0.848234
0.920974 0.646204 0.885115
1 0.64329 0.920378
1 0.638758 0.954162
0 0.84831 0.606409
0.0124208 0.874998 0.641581
0.152804 0.874235 0.679011
0.41294 0.834394 0.720348
0.621637 0.808667 0.758053
0.793225 0.793225 0.793225
0.938384 0.784527 0.826154
1 0.777493 0.857282
1 0.769192 0.887312
0 0.990829 0.586633
0.0506447 1 0.616968
0.186786 1 0.650156
0.443015 0.963943 0.687602
0.647822 0.934325 0.721416
0.815534 0.915007 0.752712
0.957122 0.902724 0.782055
1 0.893019 0.810513
1 0.882963 0.838788
0.0313268 1 0.562982
0.0808881 1 0.589639
0.213214 1 0.618997
0.466163 1 0.653147
0.668696 1 0.684688
0.834958 1 0.714534
0.976287 1 0.743648
1 1 0.771298
1 0.992615 0.79968
0.0533913 1 0.527199
0.100816 1 0.55172
0.23209 1 0.580041
0.485023 1 0.614176
0.686809 1 0.644984
0.853162 1 0.674907
0.994202 1 0.703716
1 1 0.732082
1 1 0.760464
0 0.120638 0.942382
0 0.118029 0.948257
0 0.0910201 0.959442
0.130983 0.0289158 0.9785
0.322896 0 0.99942
0.484886 0 1
0.629099 0 1
0.770748 0 1
0.920195 0 1
0 0.151461 0.940078
0 0.158663 0.955779
0 0.147555 0.982864
0.187823 0.10605 1
0.403449 0.0872358 1
0.589975 0.0867475 1
0.757549 0.100465 1
0.918837 0.120729 1
1 0.139971 1
0 0.260975 0.90071
0 0.292836 0.94107
0 0.305898 0.992325
0.277378 0.286839 1
0.510109 0.285145 1
0.703883 0.29189 1
0.867582 0.301732 1
1 0.309926 1
1 0.315084 1
0 0.483619 0.806943
0 0.529519 0.861341
0.042359 0.545724 0.91574
0.31577 0.519158 0.970336
0.534905 0.503868 1
0.71548 0.497414 1
0.86923 0.497307 1
1 0.498665 1
1 0.49836 1
0 0.697063 0.773098
0 0.728786 0.813336
0.0778363 0.732754 0.855482
0.34258 0.69752 0.901411
0.555718 0.676234 0.943572
0.731182 0.664668 0.98262
0.879774 0.659403 1
1 0.655894 1
1 0.651102 1
0 0.862593 0.74136
0 0.888762 0.776013
0.111666 0.88748 0.812924
0.371572 0.847425 0.854032
0.579873 0.821286 0.89134
0.75108 0.805478 0.926131
0.895781 0.796307 0.958602
1 0.788861 0.989319
1 0.78024 1
0 1 0.71989
0.00869764 1 0.750088
0.144488 1 0.782925
0.400259 0.97557 0.819883
0.604746 0.945632 0.853391
0.772107 0.925963 0.884337
0.913497 0.913497 0.913497
1 0.903685 0.941848
1 0.893645 0.970138
0 1 0.695003
0.0375982 1 0.721386
0.169696 1 0.750546
0.422492 1 0.784543
0.624964 1 0.816022
0.791257 1 0.845899
0.932769 1 0.875181
1 1 0.902663
1 1 0.931044
0.00968948 1 0.658549
0.0570993 1 0.683055
0.188434 1 0.711437
0.440574 1 0.744778
0.643122 1 0.776333
0.809476 1 0.806271
0.9505 1 0.835081
1 1 0.863432
1 1 0.891814
0 0.124666 1
0 0.12253 1
0 0.0961776 1
0.0872969 0.0350805 1
0.280858 0 1
0.445686 0 1
0.592386 0 1
0.736492 0 1
0.888426 0 1
0 0.15848 1
0 0.167849 1
0 0.15906 1
0.151873 0.119951 1
0.36997 0.103624 1
0.559075 0.105699 1
0.728313 0.12108 1
0.889738 0.141482 1
1 0.15938 1
0 0.276234 1
0 0.310597 1
0 0.325765 1
0.248081 0.307408 1
0.480461 0.305348 1
0.672953 0.310826 1
0.834928 0.318929 1
0.982895 0.325887 1
1 0.330129 1
0 0.504509 0.938415
0 0.549584 0.991989
0.0108339 0.56405 1
0.282277 0.535515 1
0.500511 0.519341 1
0.68069 0.512474 1
0.83389 0.511833 1
0.975753 0.512673 1
1 0.511864 1
0 0.71313 0.899763
0 0.744213 0.939345
0.0425727 0.747341 0.980667
0.306783 0.711574 1
0.519432 0.689799 1
0.694392 0.677729 1
0.842741 0.672221 1
0.979736 0.668208 1
1 0.663142 1
0 0.876753 0.866117
0 0.902403 0.900267
0.0749218 0.900603 0.936645
0.334096 0.8598 0.977005
0.542245 0.833524 1
0.713115 0.817365 1
0.857328 0.807721 1
0.990524 0.799893 1
1 0.790982 1
0 1 0.843
0 1 0.872786
0.10631 1 0.905196
0.361563 0.986725 0.941634
0.565789 0.956542 0.974884
0.732906 0.936629 1
0.874144 0.923995 1
1 0.914122 1
1 0.90425 1
0 1 0.816709
0 1 0.842786
0.130434 1 0.871733
0.383108 1 0.905608
0.58555 1 0.937057
0.751949 1 0.967041
0.8925 1 0.995361
1 1 1
1 1 1
0 1 0.779583
0.0177005 1 0.804105
0.149142 1 0.832593
0.40119 1 0.865843
0.603738 1 0.897398
0.770092 1 0.927337
0.911116 1 0.956146
1 1 0.984497
1 1 1
0 0.128756 1
0 0.127184 1
0 0.101686 1
0.0441901 0.0420386 1
0.239811 0.00325017 1
0.407126 0 1
0.556298 0 1
0.702739 0 1
0.857008 0 1
0 0.166003 1
0 0.178119 1
0 0.171832 1
0.117037 0.13518 1
0.337652 0.12137 1
0.528847 0.125551 1
0.698894 0.141726 1
0.859892 0.161715 1
1 0.178042 1
0 0.291707 1
0 0.328466 1
0 0.345541 1
0.218921 0.328313 1
0.450507 0.325475 1
0.641306 0.329244 1
0.801434 0.335515 1
0.948241 0.341299 1
1 0.345235 1
0 0.524834 1
0 0.568505 1
0 0.58117 1
0.24831 0.551629 1
0.465873 0.534768 1
0.645426 0.527291 1
0.797909 0.525917 1
0.939254 0.526253 1
1 0.525154 1
0 0.728771 1
0 0.759243 1
0.00721752 0.762066 1
0.270909 0.725765 1
0.483024 0.703471 1
0.657435 0.690852 1
0.805249 0.684794 1
0.941924 0.680461 1
1 0.675044 1
0 0.890639 0.991073
0 0.915892 1
0.0378119 0.913573 1
0.296544 0.872328 1
0.504311 0.845655 1
0.674769 0.829084 1
0.81854 0.818998 1
0.951385 0.810834 1
1 0.801663 1
0 1 0.966461
0 1 0.99588
0.0678264 1 1
0.322545 0.997772 1
0.526543 0.967361 1
0.693446 0.947234 1
0.834546 0.934478 1
0.965667 0.924575 1
1 0.914839 1
0 1 0.938933
0 1 0.964599
0.090898 1 0.993347
0.343496 1 1
0.545937 1 1
0.712505 1 1
0.852918 1 1
0.984146 1 1
1 1 1
0 1 0.901122
0 1 0.925673
0.109682 1 0.954299
0.361593 1 0.987411
0.564141 1 1
0.730495 1 1
0.871534 1 1
1 1 1
1 1 1
