EOSHD C-LOG-and-Film-Profiles + LUT/C-LOG-and-Film-Profiles/LUT CINE 2 for Canon LOG.cube
TITLE "Generate by Resolve"
LUT_3D_SIZE 5
0.0944228 0.0944228 0.0944228
0.233799 0.061265 0.107958
0.652934 0 0.137301
0.93463 0 0.170352
1 0 0.225315
0.0734264 0.184955 0.00296025
0.261418 0.200427 0.0651102
0.754604 0.159213 0.168521
1 0.184085 0.285618
1 0.214908 0.392935
0.129717 0.586725 0
0.351843 0.636316 0
0.836515 0.586603 0.0321965
1 0.575952 0.113787
1 0.572992 0.18732
0.244785 0.922164 0
0.438315 0.94316 0
0.903517 0.87396 0
1 0.845655 0.0239261
1 0.827344 0.0820783
0.313115 1 0
0.492546 1 0
0.947723 1 0
1 1 0
1 1 0.00370794
0.0389258 0.0999161 0.235218
0.178958 0.0674144 0.249409
0.600656 0 0.281315
0.888334 0 0.320363
1 0 0.385733
0.0314641 0.203998 0.157305
0.229297 0.229297 0.229297
0.731243 0.196841 0.341436
1 0.222583 0.459434
1 0.246921 0.56025
0.104707 0.622705 0.0123293
0.320806 0.666285 0.102571
0.80293 0.614008 0.194903
1 0.601282 0.274418
1 0.596567 0.346197
0.208362 0.946746 0
0.400214 0.966064 0.0427863
0.86389 0.895338 0.116655
1 0.865476 0.179049
1 0.846387 0.236454
0.271565 1 0
0.450507 1 0
0.90605 1 0.0433967
1 1 0.101289
1 1 0.158022
0 0.111833 0.666239
0.00317388 0.0805676 0.681651
0.42797 0 0.716655
0.72459 0 0.76463
1 0 0.839658
0 0.232715 0.605127
0.0789654 0.267887 0.686992
0.587945 0.242466 0.806165
0.951415 0.265064 0.921004
1 0.283177 1
0 0.662531 0.471244
0.167254 0.70164 0.557046
0.647028 0.647028 0.647028
0.973327 0.632441 0.724681
1 0.625681 0.794415
0.0499275 0.977234 0.426368
0.24007 0.994858 0.490669
0.702068 0.922438 0.56286
1 0.89131 0.623987
1 0.871717 0.680873
0.108202 1 0.369223
0.286915 1 0.42208
0.74165 1 0.487022
1 1 0.545754
1 1 0.602502
0 0.120638 0.942382
0 0.0910201 0.959442
0.322896 0 0.99942
0.629099 0 1
0.920195 0 1
0 0.260975 0.90071
0 0.305898 0.992325
0.510109 0.285145 1
0.867582 0.301732 1
1 0.315084 1
0 0.697063 0.773098
0.0778363 0.732754 0.855482
0.555718 0.676234 0.943572
0.879774 0.659403 1
1 0.651102 1
0 1 0.71989
0.144488 1 0.782925
0.604746 0.945632 0.853391
0.913497 0.913497 0.913497
1 0.893645 0.970138
0.00968948 1 0.658549
0.188434 1 0.711437
0.643122 1 0.776333
0.9505 1 0.835081
1 1 0.891814
0 0.128756 1
0 0.101686 1
0.239811 0.00325017 1
0.556298 0 1
0.857008 0 1
0 0.291707 1
0 0.345541 1
0.450507 0.325475 1
0.801434 0.335515 1
1 0.345235 1
0 0.728771 1
0.00721752 0.762066 1
0.483024 0.703471 1
0.805249 0.684794 1
1 0.675044 1
0 1 0.966461
0.0678264 1 1
0.526543 0.967361 1
0.834546 0.934478 1
1 0.914839 1
0 1 0.901122
0.109682 1 0.954299
0.564141 1 1
0.871534 1 1
1 1 1
