EOSHD C-LOG-and-Film-Profiles + LUT/C-LOG-and-Film-Profiles/LUT CINE 3 for Canon LOG.cube
TITLE "Generate by Resolve"
LUT_3D_SIZE 33
0.0621805 0.0621805 0.0621805
0.0653544 0.0621805 0.0621805
0.0680705 0.0623484 0.0623484
0.071809 0.0622263 0.0622263
0.0786145 0.0612497 0.0612497
0.0889143 0.0592813 0.0592813
0.10132 0.0566415 0.0566415
0.115648 0.0534371 0.0534371
0.132113 0.0496376 0.0496376
0.150896 0.0452735 0.0452735
0.172213 0.0403296 0.0403296
0.196246 0.0347906 0.0347906
0.223224 0.0285496 0.0285496
0.25301 0.0216068 0.0216068
0.285695 0.0140383 0.0140383
0.321477 0.00604257 0.00604257
0.360067 0 0
0.401038 0 0
0.443732 0 0
0.487602 0 0
0.532204 0 0
0.576699 0 0
0.619806 0 0
0.661097 0 0
0.700221 0 0
0.736934 0 0
0.771206 0 0
0.802243 0 0
0.82771 0 0
0.844114 0 0
0.855955 0 0
0.866148 0 0
0.876143 0 0
0.0622568 0.0654154 0.0622568
0.0654154 0.0654154 0.0622568
0.0680247 0.0654917 0.0623331
0.0716259 0.0652018 0.0620432
0.078294 0.0640574 0.0608988
0.0885023 0.0619516 0.058793
0.100923 0.0593118 0.0561685
0.115465 0.0562753 0.0531319
0.132204 0.0527504 0.0496223
0.151293 0.048661 0.0455329
0.172869 0.0439612 0.0408331
0.197253 0.0387427 0.0356146
0.224765 0.0330816 0.0299382
0.255482 0.0269627 0.0238193
0.28896 0.0201724 0.0170291
0.325292 0.0127108 0.00956741
0.364431 0.00480659 0.00164797
0.406088 0 0
0.449683 0 0
0.494453 0 0
0.539452 0 0
0.584314 0 0
0.627802 0 0
0.669535 0 0
0.709041 0 0
0.74612 0 0
0.780621 0 0
0.812055 0 0
0.837934 0 0
0.854643 0 0
0.866773 0 0
0.877272 0 0
0.887587 0 0
0.0624857 0.0681773 0.0624857
0.0654612 0.0680095 0.0623178
0.0679789 0.0679789 0.0623026
0.0716564 0.0677501 0.0620737
0.0785382 0.066804 0.0611276
0.0890822 0.0649882 0.0593118
0.101823 0.0626688 0.0569772
0.116609 0.0598611 0.0541848
0.133776 0.056733 0.0510567
0.153536 0.0532998 0.0476234
0.175967 0.049424 0.0437324
0.201068 0.0449226 0.0392309
0.229145 0.0398566 0.0341497
0.260441 0.0342412 0.0285344
0.294728 0.0282139 0.0225071
0.331991 0.0216678 0.0159457
0.371832 0.0144656 0.00874342
0.413962 0.00675975 0.00103761
0.458015 0 0
0.50312 0 0
0.548547 0 0
0.593668 0 0
0.637507 0 0
0.679606 0 0
0.719661 0 0
0.757122 0 0
0.791897 0 0
0.823621 0 0
0.849821 0 0
0.867033 0 0
0.879683 0 0
0.890349 0 0
0.900908 0 0
0.0616007 0.0712139 0.0616007
0.0648203 0.0712902 0.0616922
0.0676432 0.0715648 0.0619669
0.0715801 0.0715801 0.0619821
0.0787518 0.0709087 0.0613107
0.0898604 0.0696269 0.060029
0.103349 0.0680247 0.0583963
0.118959 0.066041 0.0564126
0.136751 0.0635386 0.0538949
0.157031 0.0606088 0.0509651
0.180148 0.0573892 0.0477455
0.20618 0.0538033 0.0441291
0.235035 0.049546 0.0398566
0.266972 0.0445106 0.0348211
0.301671 0.0388647 0.0291752
0.339284 0.0326543 0.0229648
0.379629 0.0259403 0.0162356
0.422263 0.0187381 0.00903334
0.466514 0.0110475 0.00134279
0.511894 0.00321965 0
0.557702 0 0
0.603265 0 0
0.647578 0 0
0.690074 0 0
0.730343 0 0
0.768246 0 0
0.803555 0 0
0.83566 0 0
0.862135 0 0
0.879744 0 0
0.892744 0 0
0.903929 0 0
0.914931 0 0
0.0587625 0.0763104 0.0587625
0.0623484 0.0767071 0.0591897
0.0657511 0.0775464 0.0600595
0.0705425 0.0783856 0.060914
0.0785229 0.0785229 0.0610361
0.0901808 0.0777447 0.0602426
0.104189 0.0766613 0.059144
0.120531 0.0753948 0.0578622
0.139239 0.0737926 0.0562448
0.160357 0.0716716 0.0541085
0.184024 0.0690166 0.0514382
0.210361 0.0657054 0.048127
0.239612 0.0618448 0.0442359
0.271977 0.0572671 0.0396582
0.307103 0.0519875 0.0343633
0.345022 0.046067 0.0284276
0.385763 0.0397498 0.0220951
0.428779 0.0328985 0.0152438
0.473518 0.0256962 0.00802625
0.51928 0.018265 0.000579843
0.565377 0.0108797 0
0.611368 0.00395209 0
0.656229 0 0
0.699107 0 0
0.739727 0 0
0.777935 0 0
0.813626 0 0
0.846387 0 0
0.873396 0 0
0.891173 0 0
0.904524 0 0
0.916106 0 0
0.92784 0 0
0.0547341 0.0848402 0.0547341
0.0589761 0.0858625 0.0558022
0.0628977 0.0872053 0.0571908
0.0683299 0.0886549 0.0586557
0.0770733 0.0895399 0.0595407
0.089662 0.089662 0.0596323
0.104356 0.08925 0.059205
0.121141 0.0884108 0.0583505
0.140307 0.0872663 0.0571908
0.161837 0.0855421 0.0554665
0.185885 0.083238 0.0531472
0.212573 0.0802625 0.0501564
0.242115 0.0766766 0.04654
0.274784 0.0724498 0.0423133
0.310582 0.0677653 0.0376135
0.348989 0.0623178 0.0321508
0.389975 0.0562142 0.0260319
0.433295 0.0496529 0.0194705
0.478462 0.0428626 0.012665
0.524742 0.0359655 0.00575265
0.571435 0.0291752 0
0.617609 0.0225376 0
0.662852 0.0163119 0
0.706188 0.0108797 0
0.747372 0.00624094 0
0.786053 0.00233463 0
0.822171 0 0
0.855283 0 0
0.882704 0 0
0.901015 0 0
0.914794 0.00204471 0
0.92694 0.00567636 0
0.938888 0.00927749 0
0.0508125 0.0962234 0.0508125
0.0560006 0.0981308 0.0528267
0.0606394 0.0996414 0.0549477
0.0664988 0.101595 0.0569162
0.0755474 0.102846 0.0581521
0.0882734 0.103304 0.0586099
0.103426 0.103426 0.0587472
0.120516 0.102998 0.0583047
0.139757 0.102022 0.0573281
0.161395 0.100572 0.0558633
0.185672 0.0986343 0.0539254
0.21268 0.0961471 0.0514229
0.242817 0.0930648 0.0483406
0.275517 0.089189 0.0444495
0.311192 0.0847028 0.0399634
0.349813 0.0796826 0.0349279
0.391135 0.0740978 0.0293584
0.434699 0.0679789 0.0232242
0.480186 0.0616617 0.0168917
0.526711 0.0550698 0.0102998
0.573983 0.0485542 0.00376898
0.62063 0.0423743 0
0.666041 0.0365911 0
0.709697 0.0314183 0
0.751537 0.0272831 0
0.790829 0.0238651 0
0.827527 0.0212863 0
0.861067 0.0195315 0
0.889372 0.0192569 0
0.908751 0.0217594 0
0.923308 0.02533 0
0.935973 0.0293584 0
0.948455 0.0334783 0
0.0475471 0.110384 0.0475471
0.0530404 0.112535 0.0498817
0.0581521 0.114916 0.0524758
0.0644388 0.117189 0.0548409
0.0738537 0.118715 0.0564431
0.0869459 0.119509 0.0572671
0.102327 0.119844 0.0576181
0.119829 0.119829 0.0575875
0.139559 0.119341 0.0570993
0.161593 0.118273 0.0560159
0.186175 0.11664 0.0543832
0.213687 0.114656 0.0523842
0.24416 0.11191 0.0496376
0.277394 0.108553 0.0462654
0.313466 0.104463 0.0421759
0.352422 0.0997635 0.0374609
0.394278 0.0947127 0.0324102
0.438407 0.0891737 0.0268559
0.484276 0.0832227 0.0209049
0.531212 0.0770581 0.014725
0.578805 0.0708934 0.00854505
0.625925 0.0651408 0.0027924
0.672084 0.0601358 0
0.716365 0.0555734 0
0.758419 0.051667 0
0.798077 0.0486152 0
0.835279 0.0465553 0
0.869459 0.0454414 0
0.898543 0.0459754 0
0.91809 0.0486305 0
0.933013 0.0525216 0
0.946181 0.0569772 0
0.959487 0.0618601 0.000427253
0.0437171 0.127001 0.0437171
0.049485 0.129351 0.0463111
0.0548714 0.13196 0.0491798
0.0615244 0.134554 0.0519417
0.0715343 0.136645 0.0541238
0.085008 0.137789 0.055314
0.100694 0.138445 0.0559701
0.118502 0.13872 0.0562295
0.138613 0.138613 0.0561227
0.161273 0.138155 0.0556649
0.186419 0.137087 0.0545815
0.214145 0.135302 0.0527962
0.244938 0.132891 0.05037
0.27863 0.129976 0.0474403
0.315267 0.126452 0.0439155
0.354849 0.122377 0.0398413
0.397009 0.117632 0.0350805
0.441489 0.112413 0.0298466
0.487861 0.106981 0.0243992
0.535409 0.101411 0.0188296
0.58349 0.0957656 0.0131685
0.631098 0.090547 0.00796521
0.677424 0.0857557 0.00320439
0.722057 0.0816358 0
0.764553 0.0782483 0
0.804517 0.0755932 0
0.841978 0.0738079 0
0.876829 0.073228 0
0.906386 0.0740063 0
0.92668 0.0772564 0
0.942229 0.0816663 0
0.956024 0.0866865 0.00518807
0.96965 0.0918593 0.0106813
0.0388647 0.145296 0.0388647
0.0451209 0.148104 0.0419471
0.0509041 0.151049 0.0452277
0.0579995 0.154055 0.0484169
0.0681773 0.156313 0.050782
0.082063 0.157885 0.0524147
0.0982681 0.15906 0.0536202
0.116487 0.159777 0.0543221
0.137026 0.160128 0.0546578
0.159976 0.159976 0.0545052
0.185519 0.159319 0.0538643
0.213794 0.158114 0.0526284
0.245014 0.156146 0.05066
0.278981 0.153567 0.0480812
0.316197 0.150652 0.0451514
0.356176 0.147005 0.0415045
0.398825 0.142794 0.0372931
0.443717 0.138018 0.032517
0.490425 0.132937 0.0274205
0.538582 0.127993 0.0224613
0.587427 0.122988 0.0174563
0.635431 0.118257 0.012726
0.682216 0.113893 0.00836194
0.727321 0.11017 0.00466926
0.770428 0.107317 0.00183108
0.811429 0.105623 0.000167849
0.849561 0.104479 0
0.884672 0.104158 0
0.914641 0.105318 3.0518e-05
0.935454 0.109071 0.0039826
0.951949 0.114366 0.00956741
0.966171 0.119753 0.0153353
0.980133 0.125246 0.0211643
0.0331121 0.166018 0.0331121
0.0397955 0.169177 0.0366217
0.0461891 0.172656 0.0405127
0.0536507 0.175967 0.0440681
0.0642252 0.178576 0.0468299
0.0784314 0.180468 0.0487831
0.0950942 0.182086 0.0504311
0.11397 0.183459 0.0518044
0.134951 0.184237 0.0525673
0.158251 0.184436 0.0527657
0.184146 0.184146 0.0524605
0.212863 0.183368 0.051667
0.2448 0.182101 0.0504158
0.279438 0.180194 0.0484932
0.316854 0.177493 0.0457771
0.357229 0.174228 0.0425116
0.400381 0.17052 0.0387884
0.445914 0.166384 0.0346532
0.493355 0.162036 0.0303044
0.541817 0.157412 0.0256657
0.591028 0.152758 0.0210117
0.639582 0.148577 0.0168307
0.687053 0.1449 0.0131533
0.732738 0.141756 0.0100252
0.776486 0.139574 0.0078584
0.817685 0.138064 0.00639353
0.856413 0.137514 0.00587472
0.892195 0.137865 0.00628672
0.922744 0.139574 0.0081178
0.944121 0.143862 0.0126345
0.960861 0.149386 0.0184787
0.97554 0.155276 0.0247044
0.990173 0.161349 0.0312047
0.0265202 0.189227 0.0265202
0.0336767 0.192767 0.0305028
0.0403143 0.196414 0.034638
0.0482338 0.200122 0.0386511
0.0593881 0.203265 0.0419776
0.0741436 0.205676 0.0444648
0.0912337 0.207736 0.0465553
0.110369 0.209369 0.048188
0.131853 0.210651 0.0494545
0.155764 0.21146 0.0502632
0.182177 0.211658 0.0504616
0.211368 0.211368 0.0501564
0.243748 0.210529 0.0493172
0.278859 0.209094 0.0478828
0.316915 0.207034 0.0458076
0.357794 0.204273 0.0430457
0.401343 0.200946 0.039704
0.447593 0.197543 0.036286
0.495506 0.193652 0.0323949
0.544564 0.189609 0.0283513
0.594232 0.185458 0.0241855
0.643214 0.181674 0.0204013
0.69131 0.178637 0.01738
0.737789 0.176287 0.0150454
0.781964 0.174517 0.0133059
0.823606 0.173465 0.0122835
0.862715 0.173312 0.0121614
0.898985 0.174166 0.0130617
0.93048 0.176852 0.0158541
0.952285 0.181598 0.020798
0.969314 0.187396 0.0269322
0.984466 0.193545 0.0336461
0.999939 0.20032 0.0409857
0.019028 0.21503 0.019028
0.026566 0.218845 0.0233768
0.0335699 0.222843 0.0278782
0.0417792 0.226886 0.0321965
0.0532235 0.229603 0.0359655
0.0683909 0.232578 0.0389868
0.085893 0.235096 0.0415351
0.105394 0.23714 0.0436103
0.127153 0.238758 0.0452277
0.151644 0.240238 0.0467079
0.178561 0.241062 0.0475319
0.208347 0.24123 0.047715
0.240757 0.240757 0.0472419
0.276112 0.239689 0.0461738
0.314565 0.238117 0.0446174
0.356222 0.236271 0.042771
0.400275 0.233555 0.0400702
0.446616 0.23032 0.0368353
0.49482 0.22681 0.0333257
0.544671 0.223178 0.0296941
0.594797 0.219852 0.0263828
0.644572 0.216876 0.0234226
0.692973 0.214054 0.0206302
0.739742 0.211917 0.0185092
0.784512 0.21062 0.0172732
0.826917 0.210208 0.016907
0.866972 0.210788 0.0175479
0.904021 0.212055 0.0189059
0.93576 0.214786 0.0217746
0.958434 0.220005 0.0272526
0.976333 0.226474 0.0341192
0.992477 0.233539 0.0417792
1 0.240177 0.0491188
0.0100099 0.241932 0.0100099
0.0180209 0.246311 0.0148775
0.0256962 0.250965 0.0199893
0.034699 0.255726 0.0251164
0.0465553 0.259571 0.0292668
0.062089 0.262791 0.0326543
0.0800641 0.265721 0.0356909
0.100191 0.268376 0.0383917
0.122759 0.270787 0.0408484
0.147448 0.27245 0.0425269
0.174762 0.273671 0.0437476
0.205097 0.274388 0.0444648
0.238178 0.274601 0.0446784
0.274113 0.274098 0.0442054
0.313237 0.273228 0.0433204
0.355077 0.27155 0.0416419
0.399741 0.269444 0.0395514
0.446769 0.266896 0.0370031
0.495537 0.263951 0.0340581
0.545876 0.260792 0.0309148
0.596597 0.258091 0.0282139
0.646784 0.255497 0.0256352
0.695872 0.253376 0.0235447
0.743175 0.251759 0.021973
0.788357 0.250874 0.0211337
0.831525 0.251225 0.0215457
0.871977 0.252186 0.0225681
0.90956 0.253971 0.0244755
0.941802 0.257176 0.0278325
0.964843 0.26273 0.0336919
0.983536 0.269917 0.0413367
0.999863 0.277058 0.0491646
1 0.284153 0.0570687
0.000427253 0.272694 0.000427253
0.00881971 0.277363 0.00567636
0.0171511 0.282612 0.0114595
0.0265202 0.287648 0.0169375
0.0390173 0.292103 0.0217288
0.0550698 0.295811 0.0256352
0.0734264 0.299092 0.0290532
0.0942702 0.302449 0.0324712
0.117189 0.305226 0.0352941
0.142535 0.307561 0.0376287
0.170367 0.309285 0.0393683
0.201114 0.310399 0.0404822
0.234928 0.31136 0.0414435
0.271534 0.311543 0.0416419
0.31107 0.31107 0.0411688
0.353399 0.309895 0.0399939
0.398444 0.308171 0.0382849
0.445975 0.306127 0.0362402
0.495766 0.304173 0.0343023
0.546685 0.301625 0.0317388
0.597635 0.299138 0.0292668
0.648203 0.296941 0.0270848
0.697795 0.295293 0.0254826
0.745754 0.294347 0.0246433
0.791638 0.294179 0.0246433
0.83473 0.294408 0.0250858
0.87541 0.295399 0.0263523
0.913146 0.297337 0.0286259
0.946105 0.300938 0.0325933
0.970001 0.307012 0.0391241
0.988708 0.313954 0.0466773
1 0.321248 0.0547646
1 0.32874 0.0632029
0 0.304967 0
0 0.310338 0
0.00773632 0.315785 0.00201419
0.0174563 0.321172 0.0078584
0.0303349 0.326101 0.0131685
0.0472267 0.330709 0.0180056
0.0661631 0.334615 0.0220798
0.0871138 0.338125 0.0256809
0.110353 0.341283 0.0288853
0.136126 0.344121 0.031754
0.164843 0.346624 0.0342718
0.196155 0.348562 0.0362402
0.230045 0.349691 0.0373846
0.266926 0.350256 0.0379492
0.306889 0.350317 0.0380255
0.349813 0.349813 0.0375525
0.395621 0.348943 0.0366979
0.44358 0.347402 0.035172
0.49366 0.345418 0.0332036
0.544778 0.343465 0.0312657
0.596353 0.341604 0.0294347
0.647486 0.339925 0.0277714
0.697887 0.339025 0.0269017
0.746273 0.338415 0.0263371
0.792615 0.338598 0.0265812
0.836561 0.339574 0.0276341
0.878035 0.341238 0.0293889
0.916411 0.343877 0.0321965
0.950042 0.348104 0.0366522
0.974212 0.354421 0.0433814
0.993454 0.361883 0.0514534
1 0.369512 0.0599527
1 0.377493 0.0687266
0 0.340841 0
0 0.346639 0
0 0.352667 0
0.0081178 0.358572 0
0.0216983 0.364141 0.00453193
0.0387274 0.368872 0.00953689
0.0582589 0.373358 0.0141909
0.0798962 0.377569 0.0184939
0.103716 0.381277 0.0222782
0.130037 0.38468 0.0256809
0.159228 0.387671 0.0287022
0.190982 0.390051 0.0310979
0.225544 0.391867 0.032929
0.262974 0.392966 0.0340581
0.303334 0.393423 0.0345312
0.347051 0.393729 0.0348516
0.39321 0.39321 0.0343481
0.441718 0.392218 0.0333867
0.492302 0.390723 0.0319066
0.543786 0.389166 0.0303502
0.596063 0.387991 0.0291905
0.647868 0.386984 0.0282139
0.698466 0.386282 0.0275273
0.747265 0.386069 0.0273747
0.793927 0.386557 0.027924
0.838224 0.387869 0.0293278
0.880568 0.390417 0.0319677
0.91928 0.393362 0.035111
0.952972 0.397604 0.0395972
0.977386 0.404105 0.0465553
0.996811 0.41181 0.0548104
1 0.420172 0.063859
1 0.427878 0.0727092
0 0.37937 0
0 0.385519 0
0 0.391989 0
0 0.398764 0
0.0127413 0.404685 0
0.0302586 0.409888 0.00106813
0.0501717 0.41474 0.00611887
0.072343 0.419455 0.010956
0.0971084 0.42414 0.0156863
0.123964 0.428061 0.0196384
0.153445 0.431342 0.0229343
0.18558 0.434119 0.025742
0.22063 0.436423 0.0280613
0.258854 0.438331 0.0299687
0.300038 0.439612 0.031281
0.343832 0.439979 0.0316777
0.390356 0.439841 0.0315557
0.439323 0.439323 0.0310521
0.490501 0.438422 0.0301518
0.542763 0.437629 0.0293736
0.595254 0.436667 0.0284428
0.647257 0.435874 0.0276493
0.698238 0.435569 0.0273594
0.747524 0.435843 0.0276799
0.794583 0.436744 0.0286259
0.839582 0.438743 0.0307012
0.881682 0.441093 0.0331273
0.920653 0.444327 0.0365148
0.95462 0.44889 0.0412757
0.979217 0.45568 0.0484169
0.999298 0.46389 0.0573129
1 0.471824 0.0662699
1 0.479591 0.0752728
0 0.420401 0
0 0.427039 0
0 0.43415 0
0 0.441016 0
0.00370794 0.447471 0
0.0218204 0.453315 0
0.0426032 0.459419 0
0.0654917 0.464851 0.00395209
0.0904097 0.469688 0.00883497
0.117861 0.474159 0.0133364
0.147982 0.478111 0.0173037
0.180728 0.481422 0.0206302
0.216205 0.484123 0.023331
0.255085 0.486641 0.025864
0.29662 0.488243 0.0274662
0.341039 0.489219 0.0284581
0.388067 0.48954 0.0287785
0.4374 0.489357 0.0286107
0.489219 0.489219 0.0284733
0.541787 0.488579 0.0278477
0.594614 0.487984 0.0272679
0.646983 0.487556 0.0268406
0.698192 0.487495 0.0267948
0.747814 0.488136 0.0274815
0.795468 0.489662 0.0290532
0.840284 0.491585 0.0310369
0.882612 0.494163 0.0337072
0.921721 0.497551 0.037232
0.955779 0.502251 0.0422065
0.980987 0.509621 0.0500496
1 0.517678 0.0587625
1 0.525887 0.0679026
1 0.533959 0.0770581
0 0.462974 0
0 0.470573 0
0 0.478141 0
0 0.485603 0
0 0.492546 0
0.0144961 0.499306 0
0.0357671 0.505638 0
0.0590219 0.511513 0
0.0844282 0.516869 0.00288396
0.112261 0.521752 0.00776684
0.142824 0.526162 0.0121614
0.176516 0.530419 0.016434
0.212573 0.5337 0.0197147
0.251469 0.536248 0.0222782
0.293324 0.538155 0.0242008
0.338094 0.539483 0.0255436
0.385595 0.540276 0.0263523
0.435767 0.540932 0.0270237
0.487511 0.540688 0.0267948
0.540291 0.540291 0.0263981
0.593408 0.539971 0.0260777
0.646082 0.539834 0.0259709
0.697658 0.540139 0.0262913
0.747707 0.541192 0.0273899
0.795193 0.542535 0.0287938
0.840146 0.544564 0.03093
0.882658 0.547265 0.0337682
0.92192 0.550759 0.0374456
0.956405 0.555886 0.0428473
0.981247 0.56286 0.050309
1 0.57084 0.0589761
1 0.578973 0.0680552
1 0.587259 0.0774701
0 0.508385 0
0 0.51603 0
0 0.524025 0
0 0.532082 0
0 0.539803 0
0.00863661 0.546853 0
0.0301823 0.55346 0
0.0539406 0.559838 0
0.0799268 0.565789 0
0.108263 0.571176 0.00376898
0.139513 0.576272 0.00886549
0.173205 0.58053 0.013138
0.209644 0.584192 0.0168154
0.249027 0.587213 0.0198672
0.291249 0.589502 0.0221561
0.336294 0.591104 0.0237583
0.384436 0.592554 0.0252079
0.434501 0.593088 0.0257725
0.486549 0.593164 0.025864
0.539574 0.593011 0.0257115
0.592828 0.592828 0.0255283
0.646067 0.593256 0.0259709
0.697704 0.593622 0.0263676
0.747539 0.594461 0.0272526
0.795117 0.595895 0.028748
0.840055 0.597879 0.0308995
0.882643 0.600595 0.0338598
0.921965 0.60412 0.0376898
0.955947 0.60856 0.0425879
0.980621 0.615091 0.0498512
1 0.622721 0.0583505
1 0.630838 0.0676432
1 0.6383 0.0764477
0 0.552392 0
0 0.560418 0
0 0.568765 0
0 0.577493 0
0 0.585519 0
0.0037995 0.592996 0
0.0256809 0.600046 0
0.0496071 0.606729 0
0.0762188 0.613367 0
0.104982 0.619165 0.0012665
0.136141 0.624414 0.00653086
0.169879 0.628962 0.0111086
0.206394 0.632868 0.0150454
0.246235 0.636545 0.0187533
0.288609 0.639155 0.0213779
0.333791 0.641077 0.0233158
0.381643 0.642283 0.024567
0.431952 0.642878 0.0251926
0.483894 0.643214 0.0255436
0.53724 0.643565 0.0259098
0.590631 0.643503 0.025864
0.643549 0.643549 0.0259403
0.695262 0.643885 0.0263066
0.74519 0.644663 0.0271305
0.793164 0.646235 0.0287175
0.838697 0.648478 0.0309911
0.881117 0.651286 0.0337835
0.920501 0.654749 0.0372931
0.954833 0.659403 0.0420386
0.979721 0.666255 0.0491493
0.999832 0.674556 0.0579385
1 0.682445 0.0667124
1 0.689952 0.0753948
0 0.599924 0
0 0.608759 0
0 0.617655 0
0 0.626459 0
0 0.634775 0
0.002121 0.642603 0
0.0248112 0.650477 0
0.0492409 0.657649 0
0.075761 0.664225 0
0.104753 0.670237 0.00106813
0.136141 0.675746 0.00657664
0.170199 0.680629 0.01149
0.207431 0.685252 0.0161288
0.247044 0.688701 0.0196078
0.289509 0.691432 0.0223545
0.334829 0.693477 0.0244297
0.382849 0.69485 0.0258183
0.433326 0.695644 0.026627
0.485603 0.69633 0.0273289
0.538598 0.696315 0.0273594
0.591928 0.696193 0.0272526
0.6448 0.696178 0.0272526
0.696468 0.696468 0.0275731
0.746502 0.697368 0.0285039
0.7944 0.698817 0.029984
0.83946 0.700618 0.0318151
0.881651 0.703182 0.0343633
0.920836 0.706462 0.0376745
0.955001 0.710933 0.042237
0.980056 0.717952 0.0495003
0.999374 0.72546 0.057496
1 0.732967 0.0658732
1 0.74023 0.0740978
0 0.648524 0
0 0.657694 0
0 0.66685 0
0 0.676081 0
0 0.684764 0
0.00369268 0.693217 0
0.0263218 0.701045 0
0.0509804 0.708461 0
0.0778363 0.715358 0
0.107057 0.72163 0.00341802
0.138628 0.727306 0.00909438
0.17322 0.732723 0.0145418
0.210147 0.737057 0.0188907
0.249897 0.740658 0.0225223
0.292485 0.743511 0.025391
0.337835 0.745602 0.0274815
0.386252 0.747356 0.0292821
0.436591 0.748028 0.0299687
0.488441 0.748287 0.0302434
0.54139 0.748241 0.0302129
0.594644 0.748028 0.0300145
0.647395 0.747906 0.0299229
0.699168 0.748318 0.0303502
0.748791 0.748791 0.030869
0.796292 0.749828 0.0319066
0.841154 0.751446 0.0335393
0.88304 0.753704 0.0357977
0.921996 0.756741 0.0388647
0.956024 0.761059 0.0432746
0.980377 0.767391 0.049836
0.999405 0.774655 0.0575418
1 0.781857 0.0653391
1 0.789029 0.0734569
0 0.697948 0
0 0.707073 0
0 0.716426 0
0 0.725994 0
0 0.735317 0
0.00787366 0.743709 0
0.0305791 0.751583 0
0.0552682 0.758999 0
0.0829175 0.766995 0.00209049
0.112459 0.773465 0.00866712
0.14432 0.7794 0.0146487
0.178561 0.784466 0.0197299
0.215518 0.7888 0.0240787
0.255253 0.79237 0.0276646
0.297795 0.795148 0.030457
0.343435 0.797528 0.0328374
0.391394 0.798886 0.034226
0.441688 0.799435 0.0347753
0.493355 0.799496 0.0348363
0.546059 0.799191 0.0345464
0.599084 0.798779 0.0341344
0.652003 0.798825 0.0342107
0.703182 0.798642 0.0340429
0.752438 0.798795 0.0342107
0.799435 0.799435 0.0348516
0.844007 0.800702 0.0361334
0.885649 0.802731 0.0381628
0.924407 0.805631 0.0410925
0.957656 0.809277 0.04477
0.981414 0.815152 0.050782
0.999908 0.822065 0.0579995
1 0.829053 0.0656596
1 0.83592 0.0734264
0 0.747189 0
0 0.75668 0
0 0.766384 0
0 0.776471 0
0 0.78558 0
0.0148775 0.794079 0
0.0377813 0.802152 0
0.0627146 0.809842 0.00196841
0.090074 0.817288 0.00935378
0.119646 0.823926 0.0159609
0.151339 0.829725 0.0217288
0.185565 0.834791 0.0267796
0.222477 0.839094 0.0310826
0.262119 0.842573 0.0345922
0.304936 0.84564 0.0376593
0.350011 0.84744 0.0394751
0.397665 0.848493 0.040528
0.447761 0.848844 0.0408942
0.499245 0.848722 0.0407874
0.551995 0.848463 0.0405432
0.604715 0.84773 0.039826
0.656825 0.846983 0.0390936
0.707729 0.84651 0.0386358
0.75671 0.846387 0.0385138
0.803342 0.846632 0.0388037
0.847761 0.847761 0.0399329
0.888869 0.849256 0.041413
0.92694 0.851453 0.0436255
0.959854 0.854734 0.0469825
0.9832 0.860151 0.0525826
1 0.866667 0.0594644
1 0.873213 0.0666819
1 0.879393 0.0737163
0 0.796139 0
0 0.805859 0
0 0.816007 0
0 0.825757 0
0.00422675 0.834928 0
0.0247044 0.843473 0
0.047776 0.851713 0.0043183
0.0728923 0.859602 0.0121614
0.0999161 0.866697 0.0192111
0.129259 0.873121 0.0255894
0.160861 0.878828 0.031281
0.194903 0.883711 0.0361486
0.231769 0.887984 0.0404212
0.271412 0.891463 0.0439002
0.313619 0.893919 0.0463722
0.35848 0.895521 0.0479896
0.405829 0.896239 0.0487221
0.455497 0.896193 0.0486915
0.506905 0.895994 0.0484779
0.559167 0.895262 0.0477607
0.611521 0.894148 0.0466621
0.663188 0.892958 0.0454871
0.713542 0.891951 0.0444953
0.762081 0.891371 0.0439155
0.808743 0.891646 0.0442206
0.85243 0.892042 0.0446174
0.893004 0.893004 0.0455634
0.930465 0.894575 0.0471656
0.962875 0.897383 0.0500191
0.985901 0.902464 0.0552987
1 0.908644 0.0618296
1 0.914412 0.0682841
1 0.919829 0.0746166
0 0.842374 0
0 0.851682 0
0 0.861067 0
0 0.870512 0
0.0148165 0.87982 0
0.0348821 0.888167 0.00679026
0.057496 0.896025 0.0147707
0.0821393 0.903502 0.0222629
0.108766 0.910399 0.02916
