EOSHD C-LOG-and-Film-Profiles + LUT/C-LOG-and-Film-Profiles/LUT CINE 1 for Canon LOG.cube
TITLE "Generate by Resolve"
LUT_3D_SIZE 33
0 0 0
0.00819409 0 0.00138857
0.0151369 0 0.00289921
0.0216678 0 0.00447089
0.0294347 0 0.00593576
0.0407721 0 0.00726329
0.06009 0 0.0083772
0.0897688 0 0.00933852
0.127108 0 0.0102388
0.169299 0 0.0111391
0.215915 0 0.0119783
0.266423 0 0.0127871
0.319814 0 0.0135958
0.374426 0 0.014374
0.428443 0 0.0152438
0.480156 0 0.0162661
0.52874 0 0.0173953
0.576013 0 0.018616
0.624247 0 0.0198672
0.672999 0 0.0212863
0.722118 0 0.0231022
0.771099 0 0.0251621
0.819471 0 0.0273899
0.866789 0 0.0297246
0.9131 0 0.032517
0.958511 0 0.0361334
1 0 0.0404669
1 0 0.0450294
1 0 0.0497444
1 0 0.0549935
1 0 0.0609751
1 0 0.0677348
1 0 0.0746929
0.000442512 0.00732433 0
0.00866712 0.00672923 0
0.0154269 0.00645457 0
0.0215 0.00610361 0.000915541
0.0288548 0.00526436 0.00195315
0.0398871 0.00328069 0.00296025
0.0590372 0 0.00392157
0.088716 0 0.00486763
0.126009 0 0.00573739
0.168139 0 0.00657664
0.214755 0 0.00741588
0.265354 0 0.00833143
0.318975 0 0.00935378
0.374014 0 0.0105592
0.428351 0 0.0117494
0.480323 0 0.0130312
0.529305 0 0.0145571
0.577218 0 0.0164187
0.626352 0 0.0185702
0.67602 0 0.0208896
0.725765 0 0.0233463
0.775723 0 0.0263828
0.825666 0 0.0301823
0.875029 0 0.0345617
0.923186 0 0.0392004
0.969924 0 0.0441444
1 0 0.0495613
1 0 0.0557107
1 0 0.0623484
1 0 0.0691539
1 0 0.0762646
1 0 0.08365
1 0 0.0912337
0.00135805 0.0133669 0
0.00920119 0.0123751 0
0.0156558 0.01178 0
0.021622 0.0113222 0
0.0289311 0.0104524 0
0.0399329 0.0084535 0.000503548
0.0590982 0.00402838 0.00148013
0.088777 0 0.00241093
0.126223 0 0.00343328
0.168643 0 0.00456245
0.21561 0 0.00576791
0.266529 0 0.00698863
0.320516 0 0.0083772
0.375967 0 0.00999466
0.431083 0 0.0119478
0.483955 0 0.0141299
0.533669 0 0.0164034
0.582345 0 0.019028
0.632776 0 0.0224765
0.684169 0 0.0265354
0.735943 0 0.0310063
0.787472 0 0.0355993
0.83859 0 0.0405737
0.889448 0 0.0464637
0.939315 0 0.0528115
0.987793 0 0.0594797
1 0 0.0662547
1 0 0.0732128
1 0 0.0805524
1 0 0.088365
1 0 0.0961166
1 0 0.10396
1 0 0.112016
0.00166323 0.0184939 0
0.00946059 0.0174563 0
0.0158846 0.016846 0
0.0218509 0.0163729 0
0.029221 0.0155642 0
0.0404669 0.0138094 0
0.0599222 0.00967422 0
0.0899519 0.00242618 0.00120546
0.127672 0 0.00250248
0.170443 0 0.00396735
0.218051 0 0.00581369
0.269825 0 0.00790417
0.324636 0 0.0101015
0.380789 0 0.0124361
0.436759 0 0.0152438
0.49102 0 0.0188144
0.542901 0 0.0232395
0.593484 0 0.0277714
0.645167 0 0.0324712
0.697704 0 0.0376745
0.750912 0 0.043595
0.804318 0 0.0500649
0.85742 0 0.057023
0.909194 0 0.0638132
0.959747 0 0.0708629
1 0 0.0782177
1 0 0.0858015
1 0 0.0935225
1 0 0.101564
1 0 0.109667
1 0 0.118135
1 0 0.126802
1 0 0.135546
0.000747692 0.0241093 0
0.00865187 0.0231937 0
0.0153201 0.0228275 0
0.0216678 0.0227359 0
0.0294041 0.0222934 0
0.0408942 0.0207828 0
0.0607614 0.0170443 0
0.0914626 0.0104829 0
0.130098 0.00184634 0.00169375
0.173724 0 0.00402838
0.222019 0 0.00654612
0.274815 0 0.0096437
0.331258 0 0.0135042
0.389456 0 0.0178683
0.44715 0 0.0224002
0.502831 0 0.0274052
0.555764 0 0.0328832
0.60798 0 0.0390478
0.66157 0 0.045655
0.715618 0 0.052369
0.769772 0 0.059205
0.824109 0 0.0666361
0.877684 0 0.0740673
0.930282 0 0.0816815
0.98146 0 0.0893416
1 0 0.0971847
1 0 0.105653
1 0 0.114107
1 0 0.122698
1 0 0.131411
1 0 0.140337
1 0 0.149569
1 0 0.159396
0 0.0320439 0
0.0059205 0.0314336 0
0.0129244 0.0314031 0
0.0197757 0.0318303 0
0.028275 0.0321355 0
0.0406653 0.0315251 0
0.061265 0.0285344 0
0.0927291 0.0227207 0
0.132738 0.0154726 0
0.178164 0.00732433 0.0030518
0.228443 0 0.00755322
0.282734 0 0.0121614
0.340337 0 0.0171664
0.400015 0 0.0229953
0.459586 0 0.0294347
0.51693 0 0.0360876
0.57113 0 0.0428321
0.624125 0 0.0497749
0.678355 0 0.057023
0.733455 0 0.0647746
0.788418 0 0.0724498
0.843046 0 0.0801404
0.897108 0 0.0880751
0.950332 0 0.0963149
1 0 0.104799
1 0 0.113725
1 0 0.122408
1 0 0.131334
1 0 0.140551
1 0 0.150027
1 0 0.159609
1 0 0.16965
1 0 0.179522
0 0.0444648 0
0 0.0448005 0
0.00665293 0.045594 0
0.0141756 0.0466773 0
0.0235599 0.0478828 0
0.0374151 0.0487373 0
0.06009 0.0478065 0
0.0935531 0.0439918 0
0.134752 0.0379339 0
0.181338 0.0309453 0
0.233097 0.023331 0.00210575
0.289296 0.0150607 0.00860609
0.348699 0.00624094 0.0154269
0.40943 0 0.0223239
0.469596 0 0.0293431
0.527642 0 0.0366979
0.582666 0 0.0442664
0.636332 0 0.0518959
0.69131 0 0.0598764
0.746761 0 0.0679942
0.802411 0 0.0763256
0.857862 0 0.0848707
0.912596 0 0.0934462
0.966293 0 0.102174
1 0 0.111528
1 0 0.120821
1 0 0.130266
1 0 0.139757
1 0 0.149386
1 0 0.159609
1 0 0.169787
1 0 0.180026
1 0 0.190311
0 0.0628367 0
0 0.0641642 0
0 0.0666667 0
0.00727855 0.06981 0
0.0183413 0.0726787 0
0.033463 0.0747845 0
0.0574502 0.0751812 0
0.0924849 0.0729534 0
0.135576 0.0687877 0
0.183612 0.0632486 0
0.236255 0.0565194 0
0.293385 0.0491798 0
0.353414 0.0409705 0.0053254
0.414832 0.0325475 0.0128939
0.475608 0.0243687 0.0205234
0.534127 0.0171206 0.0283513
0.589868 0.0113069 0.0366522
0.644526 0.00622568 0.0452583
0.700069 0.000808728 0.0538186
0.756024 0 0.0624399
0.812131 0 0.0712291
0.868147 0 0.0803235
0.923858 0 0.0899062
0.978408 0 0.0994736
1 0 0.10898
1 0 0.118639
1 0 0.128542
1 0 0.138628
1 0 0.149096
1 0 0.159411
1 0 0.169772
1 0 0.180255
1 0 0.190814
0 0.0883803 0
0 0.0911574 0
0 0.0948196 0
0.00154116 0.0993057 0
0.0146792 0.104265 0
0.0315404 0.108125 0
0.056611 0.10959 0
0.0923781 0.108095 0
0.136141 0.104585 0
0.185031 0.0999161 0
0.238682 0.0941787 0
0.296071 0.0870985 0
0.356588 0.0793927 0
0.418662 0.0716106 0
0.480262 0.0642863 0.00779736
0.539635 0.0578927 0.0164797
0.595972 0.0526589 0.0253605
0.650935 0.0478828 0.0342718
0.707118 0.0431067 0.0434577
0.763851 0.0384222 0.0528572
0.820584 0.0337987 0.0622873
0.877241 0.0295872 0.0720226
0.933288 0.0257725 0.0819409
0.98822 0.0223392 0.0918898
1 0.019501 0.101976
1 0.0171969 0.112093
1 0.0155184 0.122286
1 0.0149538 0.132998
1 0.0150301 0.143404
1 0.0185245 0.153933
1 0.0247654 0.164508
1 0.0321508 0.175067
1 0.0400854 0.185901
0 0.11989 0
0 0.12459 0
0 0.129854 0
0 0.135653 0
0.0120089 0.141024 0
0.0295872 0.145602 0
0.0554665 0.14789 0
0.0919203 0.147066 0
0.136202 0.144091 0
0.185855 0.140185 0
0.240009 0.134951 0
0.298222 0.128695 0
0.35938 0.121614 0
0.421927 0.114321 0
0.484413 0.107866 0
0.544381 0.102068 0.00173953
0.601251 0.0973678 0.0111543
0.656764 0.0931411 0.0206149
0.713344 0.0887617 0.0302129
0.770596 0.0846113 0.0401312
0.828183 0.080827 0.0504158
0.885191 0.0769665 0.060502
0.941466 0.0733806 0.070634
0.996643 0.0701915 0.080827
1 0.0675822 0.0911421
1 0.0657511 0.101747
1 0.0645609 0.112428
1 0.0637522 0.122896
1 0.0638743 0.133349
1 0.0673228 0.143832
1 0.0735027 0.15433
1 0.0810864 0.165087
1 0.0887922 0.175692
0 0.157534 0
0 0.163119 0
0 0.169207 0
0 0.175525 0
0.00909438 0.181491 0
0.0271458 0.186542 0
0.0536355 0.189425 0
0.0912184 0.189746 0
0.136263 0.187518 0
0.186206 0.183902 0
0.240818 0.179126 0
0.299611 0.173449 0
0.361532 0.167147 0
0.425147 0.160906 0
0.487755 0.154574 0
0.548104 0.149157 0
0.605447 0.144945 0
0.66154 0.141299 0.00399786
0.718715 0.137499 0.0141756
0.776501 0.133898 0.0246281
0.834028 0.130053 0.0348516
0.891295 0.126452 0.0451972
0.94786 0.12314 0.0556191
1 0.120211 0.0660563
1 0.117845 0.0766308
1 0.116091 0.0873121
1 0.114626 0.0977035
1 0.113756 0.10811
1 0.113817 0.118502
1 0.117159 0.128878
1 0.123491 0.139528
1 0.130434 0.14966
1 0.137591 0.159716
0 0.198917 0
0 0.204852 0
0 0.211398 0
0 0.218402 0
0.00624094 0.225208 0
0.0250095 0.230961 0
0.0523079 0.234684 0
0.0900893 0.235172 0
0.135775 0.233616 0
0.186496 0.230747 0
0.241718 0.226596 0
0.300938 0.221347 0
0.363638 0.215824 0
0.427405 0.209751 0
0.490608 0.203998 0
0.5514 0.199023 0
0.609018 0.195071 0
0.665736 0.192065 0
0.723095 0.188464 0
0.780865 0.184817 0.0059968
0.838575 0.18117 0.0164187
0.895918 0.17763 0.0268254
0.952483 0.174334 0.0372473
1 0.17171 0.0479896
1 0.169131 0.0583658
1 0.167056 0.0687114
1 0.165438 0.0789654
1 0.164279 0.0890669
1 0.164034 0.0991531
1 0.167269 0.109438
1 0.172915 0.119402
1 0.179538 0.129198
1 0.186175 0.13875
0 0.242802 0
0 0.2495 0
0 0.256657 0
0 0.264118 0
0.00425727 0.271702 0
0.0238804 0.278309 0
0.051606 0.282445 0
0.0898909 0.283452 0
0.135973 0.282277 0
0.187121 0.27985 0
0.243244 0.2766 0
0.303075 0.271962 0
0.365774 0.266423 0
0.429786 0.260594 0
0.493217 0.25507 0
0.554284 0.250385 0
0.612573 0.247105 0
0.669047 0.243839 0
0.726436 0.240269 0
0.784146 0.236576 0
0.84181 0.232868 0
0.899077 0.229267 0.00605783
0.955917 0.226261 0.0167697
1 0.223041 0.0269322
1 0.220142 0.0369573
1 0.217639 0.046891
1 0.215686 0.0568093
1 0.214298 0.0666819
1 0.21387 0.076585
1 0.216251 0.0859998
1 0.221241 0.0953078
1 0.227344 0.104601
1 0.233677 0.113832
0 0.288808 0
0 0.296101 0
0 0.304036 0
0 0.312383 0
0.0041352 0.320348 0
0.0240024 0.32723 0
0.0522164 0.331853 0
0.0910964 0.33344 0
0.137667 0.332769 0
0.189425 0.330953 0
0.245548 0.327688 0
0.305577 0.323247 0
0.368566 0.317998 0
0.432792 0.312398 0
0.49633 0.306981 0
0.557809 0.302693 0
0.615625 0.298955 0
0.672023 0.295613 0
0.729366 0.291997 0
0.786954 0.288167 0
0.844724 0.284581 0
0.90164 0.280613 0
0.957687 0.276799 0
1 0.273289 0.00430304
1 0.270069 0.014023
1 0.267124 0.0234989
1 0.264881 0.0331273
1 0.262821 0.0423285
1 0.261662 0.0514992
1 0.263752 0.0606241
1 0.268452 0.0696574
1 0.274235 0.0786145
1 0.280552 0.0878309
0 0.336675 0
0 0.344381 0
0 0.353094 0
0 0.361776 0
0.00634775 0.370169 0
0.0266423 0.377447 0
0.0551156 0.382345 0
0.0944076 0.38436 0
0.141482 0.384161 0
0.19321 0.38233 0
0.249424 0.379156 0
0.309514 0.374777 0
0.372457 0.369497 0
0.436896 0.364096 0
0.500511 0.358755 0
0.561502 0.353979 0
0.619165 0.350072 0
0.675258 0.346441 0
0.732189 0.342397 0
0.789731 0.338537 0
0.846906 0.33434 0
0.903441 0.330007 0
0.958953 0.325673 0
1 0.321492 0
1 0.317723 0
1 0.314763 4.57771e-05
1 0.311894 0.0090486
1 0.309514 0.0179294
1 0.307988 0.0267491
1 0.309804 0.035584
1 0.314382 0.0444953
1 0.320516 0.0538186
1 0.32665 0.0628519
0 0.385153 0
0 0.393698 0
0 0.402396 0
0 0.411307 0
0.0116884 0.419928 0
0.0322728 0.427512 0
0.0611734 0.432822 0
0.100649 0.435019 0
0.147524 0.434638 0
0.199222 0.432761 0
0.255344 0.429511 0
0.315389 0.425086 0
0.37847 0.419928 0
0.442588 0.414221 0
0.505714 0.408377 0
0.566293 0.403204 0
0.623621 0.398962 0
0.679423 0.395041 0
0.736309 0.390967 0
0.792935 0.386175 0
0.849409 0.381277 0
0.905455 0.376455 0
0.960662 0.371801 0
1 0.36762 0
1 0.363592 0
1 0.35993 0
1 0.356847 0
1 0.354406 0
1 0.352956 0.00535592
1 0.35523 0.0146487
1 0.359976 0.0237278
1 0.36585 0.0327916
1 0.372045 0.0418708
0 0.434272 0
0 0.442771 0
0 0.451759 0
0.00248722 0.460883 0
0.019379 0.469612 0
0.0403601 0.477577 0
0.0690318 0.482658 0
0.108202 0.48455 0
0.155016 0.484108 0
0.206577 0.482094 0
0.262562 0.478706 0
0.322469 0.474144 0
0.384939 0.468376 0
0.448585 0.462196 0
0.511391 0.456046 0
0.571511 0.450385 0
0.628351 0.445686 0
0.683742 0.441321 0
0.739849 0.436469 0
0.796201 0.431418 0
0.852369 0.42623 0
0.90808 0.421042 0
0.96318 0.416297 0
1 0.41181 0
1 0.407691 0
1 0.40415 0
1 0.40119 0
1 0.398871 0
1 0.397803 0
1 0.399863 0
1 0.404654 0.00570687
1 0.41062 0.014847
1 0.416876 0.0240024
0 0.483757 0
0 0.492302 0
0 0.501259 0
0.0103914 0.510323 0
0.0276188 0.519371 0
0.048127 0.526864 0
0.0766155 0.531777 0
0.115465 0.533349 0
0.161868 0.532494 0
0.213153 0.53019 0
0.269032 0.526696 0
0.328298 0.521508 0
0.390219 0.51519 0
0.453208 0.508339 0
0.51548 0.50164 0
0.575372 0.495781 0
0.631998 0.490852 0
0.686885 0.486 0
0.742626 0.480781 0
0.798718 0.475456 0
0.85478 0.470161 0
0.910872 0.46537 0
0.965896 0.460533 0
1 0.456062 0
1 0.452049 0
1 0.448569 0
1 0.445869 0
1 0.443778 0
1 0.442496 0
1 0.444556 0
1 0.449363 0
1 0.455344 0
1 0.46186 0.00695811
0 0.533333 0
0 0.541833 0
0.00222782 0.550668 0
0.0178836 0.559899 0
0.0343633 0.5682 0
0.0544442 0.57528 0
0.0826276 0.579858 0
0.121172 0.58114 0
0.167529 0.580224 0
0.218112 0.577234 0
0.273045 0.572793 0
0.331868 0.567147 0
0.393484 0.560525 0
0.456245 0.553445 0
0.518456 0.546715 0
0.57789 0.540383 0
0.634089 0.535012 0
0.68893 0.530114 0
0.744762 0.524987 0
0.801083 0.519905 0
0.857527 0.514977 0
0.913359 0.509941 0
0.968444 0.505165 0
1 0.500755 0
1 0.496818 0
1 0.493584 0
1 0.490913 0
1 0.488685 0
1 0.487404 0
1 0.489464 0
1 0.494285 0
1 0.500481 0
1 0.506813 0
0 0.582483 0
0 0.590906 0
0.00868238 0.59942 0
0.0236515 0.60795 0
0.0397955 0.615915 0
0.0594034 0.622507 0
0.0869154 0.626444 0
0.125231 0.627482 0
0.170825 0.625803 0
0.221134 0.622553 0
0.275776 0.617823 0
0.334234 0.611795 0
0.39556 0.604883 0
0.458457 0.597955 0
0.520378 0.590921 0
0.579919 0.584695 0
0.636271 0.579492 0
0.691218 0.574701 0
0.747204 0.569726 0
0.803754 0.564874 0
0.860029 0.559777 0
0.915953 0.554818 0
0.971084 0.550103 0
1 0.545724 0
1 0.542153 0
1 0.538735 0
1 0.535897 0
1 0.533669 0
1 0.532372 0
1 0.534508 0
1 0.539483 0
1 0.545373 0
1 0.551537 0
0 0.630671 0
0 0.638468 0
0.013489 0.646372 0
0.0278019 0.654246 0
0.0434272 0.661692 0
0.0626993 0.667948 0
0.0903029 0.671962 0
0.127932 0.672328 0
0.173159 0.670283 0
0.223224 0.666773 0
0.277775 0.661952 0
0.336614 0.656321 0
0.398077 0.649546 0
0.460777 0.64242 0
0.52282 0.635493 0
0.582422 0.629328 0
0.638819 0.624186 0
0.694194 0.619821 0
0.750179 0.614847 0
0.806516 0.609766 0
0.862806 0.6047 0
0.91873 0.599741 0
0.973907 0.595056 0
1 0.591012 0
1 0.587076 0
1 0.583642 0
1 0.580743 0
1 0.578439 0
1 0.577173 0
1 0.579385 0
1 0.584054 0
1 0.589822 0
1 0.59585 0
0 0.676707 0
0.00228885 0.683986 0
0.0169223 0.691585 0
0.0309606 0.699184 0
0.0464637 0.706508 0
0.065507 0.712551 0
0.0925765 0.716014 0
0.130175 0.71635 0
0.175494 0.714412 0
0.225696 0.71104 0
0.280674 0.706645 0
0.33933 0.700816 0
0.400824 0.694087 0
0.4636 0.687022 0
0.525719 0.680186 0
0.585382 0.674083 0
0.642176 0.669322 0
0.697215 0.664622 0
0.753216 0.659648 0
0.809552 0.654582 0
0.865843 0.649516 0
0.921752 0.644556 0
0.977203 0.640146 0
1 0.635706 0
1 0.631708 0
1 0.628214 0
1 0.625254 0
1 0.623209 0
1 0.621714 0
1 0.623529 0
1 0.628092 0
1 0.633768 0
1 0.639704 0
0 0.721248 0
0.00552377 0.728161 0
0.0198825 0.73547 0
0.0339818 0.743145 0
0.049424 0.750393 0
0.0684672 0.756436 0
0.0956741 0.760052 0
0.133394 0.760494 0
0.17879 0.758633 0
0.229404 0.755673 0
0.284153 0.751049 0
0.342824 0.745251 0
0.404379 0.738582 0
0.467185 0.731533 0
0.52958 0.724971 0
0.589334 0.718959 0
0.645777 0.713863 0
0.700816 0.709163 0
0.756786 0.704173 0
0.813077 0.699046 0
0.869627 0.694224 0
0.92549 0.689219 0
0.980545 0.684413 0
1 0.679911 0
1 0.675807 0
1 0.67216 0
1 0.669429 0
1 0.666926 0
1 0.665324 0
1 0.666972 0
1 0.671321 0
1 0.67686 0
1 0.682887 0
0 0.764553 0
0.00939956 0.771649 0
0.0241093 0.779324 0
0.0381476 0.786938 0
0.0535439 0.794141 0
0.0726635 0.800244 0
0.0999313 0.803922 0
0.137896 0.804623 0
0.183536 0.803006 0
0.233845 0.799741 0
0.288624 0.795132 0
0.347295 0.789349 0
0.408865 0.782681 0
0.471916 0.775876 0
0.534142 0.769162 0
0.593774 0.763027 0
0.650172 0.75787 0
0.705135 0.753094 0
0.761044 0.748043 0
0.817578 0.74316 0
0.873762 0.737987 0
0.929488 0.73283 0
0.98439 0.727886 0
1 0.723262 0
1 0.719051 0
1 0.715633 0
1 0.712352 0
1 0.709651 0
1 0.707897 0
1 0.709407 0
1 0.713909 0
1 0.719158 0
1 0.724651 0
0 0.807874 0
0.0147097 0.815198 0
0.0292515 0.822705 0
0.0433509 0.830381 0
0.0588388 0.837659 0
0.0780194 0.843839 0
0.105455 0.8477 0
0.143465 0.848432 0
0.188952 0.846647 0
0.239261 0.843381 0
0.294041 0.838788 0
0.352697 0.832975 0
0.414572 0.826627 0
0.477317 0.819516 0
0.539361 0.812619 0
0.598947 0.806439 0
0.655268 0.801205 0
0.710353 0.796536 0
0.766262 0.791501 0
0.822354 0.786175 0
0.878386 0.78085 0
0.934005 0.775586 0
0.988769 0.770489 0
1 0.765927 0
1 0.761608 0
1 0.757687 0
1 0.754284 0
1 0.751385 0
1 0.749355 0
1 0.750942 0
1 0.754971 0
1 0.760037 0
1 0.76527 0
0.00511177 0.851087 0
0.021088 0.858228 0
0.0356909 0.865797 0
0.0498054 0.873487 0
0.0653391 0.880842 0
0.0848249 0.887312 0
0.112139 0.891035 0
0.149935 0.891554 0
0.195392 0.889754 0
0.245655 0.886442 0
0.300465 0.88188 0
0.359304 0.876249 0
0.420768 0.86949 0
0.483436 0.862318 0
0.545373 0.855299 0
0.604822 0.848966 0
0.661189 0.843778 0
0.716136 0.838987 0
0.771786 0.833692 0
0.82771 0.828199 0
0.883543 0.82266 0
0.938979 0.817227 0
0.993835 0.812222 0
1 0.80734 0
1 0.802716 0
1 0.798535 0
1 0.794919 0
1 0.791852 0
1 0.789944 0
1 0.790951 0
1 0.794659 0
1 0.799512 0
1 0.804562 0
0.0127108 0.89366 0
0.028687 0.900801 0
0.0432898 0.90837 0
0.057435 0.916075 0
0.0732433 0.923705 0
0.0923934 0.929854 0
0.119646 0.933501 0
0.157366 0.933959 0
0.202762 0.932097 0
0.253056 0.928801 0
0.307942 0.924315 0
0.366415 0.918318 0
0.427741 0.911406 0
0.490288 0.904128 0
0.552132 0.897002 0
0.611765 0.890883 0
0.667781 0.885344 0
0.722347 0.880171 0
0.777859 0.874708 0
0.833646 0.869093 0
0.889418 0.863508 0
0.944808 0.858015 0
0.999176 0.852522 0
1 0.847364 0
1 0.842573 0
1 0.838178 0
1 0.834424 0
1 0.83122 0
1 0.828794 0
1 0.829602 0
1 0.833051 0
1 0.837568 0
1 0.842542 0
0.0215305 0.935637 0
0.0374914 0.942763 0
0.0523842 0.950622 0
0.0664683 0.958267 0
0.0818647 0.965484 0
0.100969 0.971572 0
0.128145 0.975158 0
0.165774 0.975525 0
0.211368 0.973861 0
