EOSHD C-LOG-and-Film-Profiles + LUT/C-LOG-and-Film-Profiles/LUT CINE 3 for Canon LOG.cube
TITLE "Generate by Resolve"
LUT_3D_SIZE 5
0.0621805 0.0621805 0.0621805
0.132113 0.0496376 0.0496376
0.360067 0 0
0.700221 0 0
0.876143 0 0
0.0437171 0.127001 0.0437171
0.138613 0.138613 0.0561227
0.397009 0.117632 0.0350805
0.764553 0.0782483 0
0.96965 0.0918593 0.0106813
0 0.340841 0
0.103716 0.381277 0.0222782
0.39321 0.39321 0.0343481
0.793927 0.386557 0.027924
1 0.427878 0.0727092
0 0.697948 0
0.0829175 0.766995 0.00209049
0.391394 0.798886 0.034226
0.799435 0.799435 0.0348516
1 0.83592 0.0734264
0.0890669 1 0.0890669
0.225467 1 0.146014
0.510018 1 0.156222
0.886244 1 0.124895
1 1 0.110369
0.0581216 0.0581216 0.140444
0.128054 0.0453651 0.128054
0.359777 0 0.0796368
0.703868 0 0.0163577
0.882002 0 0.00576791
0.0471199 0.130587 0.130587
0.145647 0.145647 0.145647
0.408316 0.127626 0.127626
0.779522 0.0920119 0.0920119
0.987854 0.111406 0.111406
0 0.355886 0.0757153
0.122042 0.401205 0.122042
0.416281 0.416281 0.137133
0.8206 0.413535 0.134401
1 0.458762 0.181048
0 0.723003 0.0373999
0.108446 0.792706 0.108446
0.415702 0.823194 0.139284
0.82208 0.82208 0.138216
1 0.85539 0.172778
0.110292 1 0.190997
0.244144 1 0.244144
0.525185 1 0.250874
0.892241 1 0.210285
1 1 0.189929
0.0397345 0.0397345 0.401373
0.110307 0.027451 0.390097
0.346563 0 0.346563
0.693278 0 0.286503
0.873945 0 0.278126
0.037171 0.120745 0.401587
0.138643 0.138643 0.41915
0.404318 0.123522 0.404318
0.778866 0.0912795 0.372076
0.990768 0.114321 0.394095
0 0.356573 0.356573
0.126192 0.405356 0.405356
0.423835 0.423835 0.423835
0.830213 0.423148 0.423148
1 0.469734 0.469734
0 0.73341 0.326223
0.119387 0.803632 0.396201
0.425422 0.832914 0.425422
0.829465 0.829465 0.421958
1 0.8598 0.452094
0.116625 1 0.473686
0.247501 1 0.521752
0.523919 1 0.523919
0.881727 1 0.473915
1 1 0.44918
0.0117342 0.0117342 0.780743
0.0847944 0.00178531 0.771725
0.325292 0 0.732143
0.674449 0 0.674449
0.857725 0 0.668894
0.019028 0.102449 0.789868
0.123201 0.123201 0.810636
0.392599 0.111727 0.799374
0.770397 0.0827344 0.770397
0.985687 0.109255 0.796033
0 0.349355 0.756237
0.122026 0.401221 0.808286
0.422873 0.422873 0.829938
0.831144 0.424079 0.831144
1 0.471275 0.878584
0 0.734844 0.734844
0.120577 0.804807 0.804807
0.42504 0.832547 0.832547
0.826307 0.826307 0.826307
1 0.853574 0.853574
0.112459 1 0.877012
0.240421 1 0.922637
0.511238 1 0.91902
0.859007 1 0.859007
1 1 0.832364
0 0 0.958984
0.0762341 0 0.952514
0.32076 0 0.916152
0.672374 0 0.860288
0.858137 0 0.858137
0.017731 0.101503 0.977417
0.124971 0.124971 1
0.397589 0.116609 0.992569
0.778927 0.0912337 0.967224
0.99736 0.120928 0.99736
0 0.358724 0.95491
0.134554 0.41355 1
0.438102 0.438102 1
0.852338 0.44564 1
1 0.490791 1
0 0.759716 0.946929
0.13959 0.825666 1
0.443763 0.850919 1
0.841459 0.841459 1
1 0.862119 1
0.126085 1 1
0.248478 1 1
0.510796 1 1
0.852506 1 1
1 1 1
