EOSHD C-LOG-and-Film-Profiles + LUT/C-LOG-and-Film-Profiles/LUT CINE 3 for Canon LOG.cube
TITLE "Generate by Resolve"
LUT_3D_SIZE 9
0.0621805 0.0621805 0.0621805
0.0786145 0.0612497 0.0612497
0.132113 0.0496376 0.0496376
0.223224 0.0285496 0.0285496
0.360067 0 0
0.532204 0 0
0.700221 0 0
0.82771 0 0
0.876143 0 0
0.0587625 0.0763104 0.0587625
0.0785229 0.0785229 0.0610361
0.139239 0.0737926 0.0562448
0.239612 0.0618448 0.0442359
0.385763 0.0397498 0.0220951
0.565377 0.0108797 0
0.739727 0 0
0.873396 0 0
0.92784 0 0
0.0437171 0.127001 0.0437171
0.0715343 0.136645 0.0541238
0.138613 0.138613 0.0561227
0.244938 0.132891 0.05037
0.397009 0.117632 0.0350805
0.58349 0.0957656 0.0131685
0.764553 0.0782483 0
0.906386 0.0740063 0
0.96965 0.0918593 0.0106813
0.019028 0.21503 0.019028
0.0532235 0.229603 0.0359655
0.127153 0.238758 0.0452277
0.240757 0.240757 0.0472419
0.400275 0.233555 0.0400702
0.594797 0.219852 0.0263828
0.784512 0.21062 0.0172732
0.93576 0.214786 0.0217746
1 0.240177 0.0491188
0 0.340841 0
0.0216983 0.364141 0.00453193
0.103716 0.381277 0.0222782
0.225544 0.391867 0.032929
0.39321 0.39321 0.0343481
0.596063 0.387991 0.0291905
0.793927 0.386557 0.027924
0.952972 0.397604 0.0395972
1 0.427878 0.0727092
0 0.508385 0
0 0.539803 0
0.0799268 0.565789 0
0.209644 0.584192 0.0168154
0.384436 0.592554 0.0252079
0.592828 0.592828 0.0255283
0.795117 0.595895 0.028748
0.955947 0.60856 0.0425879
1 0.6383 0.0764477
0 0.697948 0
0 0.735317 0
0.0829175 0.766995 0.00209049
0.215518 0.7888 0.0240787
0.391394 0.798886 0.034226
0.599084 0.798779 0.0341344
0.799435 0.799435 0.0348516
0.957656 0.809277 0.04477
1 0.83592 0.0734264
0 0.88835 0
0.0310063 0.926116 0.0144198
0.124147 0.956008 0.0445716
0.253025 0.975418 0.0639658
0.423713 0.981109 0.069688
0.625437 0.975769 0.0643931
0.819211 0.968994 0.0577249
0.97116 0.97116 0.0598611
1 0.991852 0.0808118
0.0890669 1 0.0890669
0.138964 1 0.122408
0.225467 1 0.146014
0.347173 1 0.158297
0.510018 1 0.156222
0.703166 1 0.142321
0.886244 1 0.124895
1 1 0.109468
1 1 0.110369
0.0618601 0.0618601 0.0792096
0.0782483 0.060853 0.0782483
0.131746 0.0491188 0.0665599
0.223407 0.0284733 0.0459602
0.361822 0 0.0162814
0.53521 0 0
0.70399 0 0
0.831693 0 0
0.88101 0 0
0.0590982 0.0766308 0.0766308
0.0799115 0.0799115 0.0799115
0.142184 0.076524 0.076524
0.243442 0.0652171 0.0652171
0.390509 0.0437018 0.0437018
0.571054 0.0155795 0.0155795
0.745968 0 0
0.879652 0 0
0.935821 0 0
0.0470283 0.130449 0.0647288
0.0756542 0.141207 0.0756542
0.144228 0.144228 0.0786145
0.251713 0.13933 0.0736553
0.405219 0.124575 0.0588388
0.592813 0.103792 0.037995
0.774884 0.0873884 0.0216373
0.91693 0.0847334 0.0190738
0.981506 0.105043 0.0397192
0.0245365 0.220783 0.0423133
0.0601663 0.237751 0.0601663
0.135546 0.247639 0.0702525
0.250446 0.250446 0.0730449
0.41149 0.243839 0.0664073
0.607431 0.231571 0.0540932
0.798398 0.223774 0.0463264
0.949676 0.229435 0.0521401
1 0.257084 0.0805676
0 0.350744 0.005066
0.0311131 0.375631 0.0311131
0.114931 0.39408 0.0499123
0.238468 0.4056 0.0614633
0.40766 0.40766 0.0634928
0.611948 0.403586 0.0593881
0.810498 0.403433 0.0592813
0.969055 0.415488 0.0717784
1 0.448005 0.105867
0 0.520668 0
0.00170901 0.553552 0.00170901
0.0934615 0.580163 0.028748
0.224079 0.599039 0.0477913
0.399252 0.607477 0.0562448
0.608377 0.608377 0.057145
0.81059 0.611597 0.0604715
0.970916 0.624277 0.0742046
1 0.654459 0.107622
0 0.712718 0
0.00224308 0.751217 0.00224308
0.0975509 0.781826 0.0335393
0.229725 0.803021 0.0552071
0.405417 0.812909 0.0651408
0.612757 0.812451 0.0647135
0.812558 0.812558 0.0648814
0.970031 0.821637 0.0740063
1 0.847501 0.101625
0 0.902541 0.00642405
0.044892 0.939986 0.044892
0.137545 0.96939 0.0745098
0.265995 0.988388 0.0934768
0.435981 0.993393 0.0985122
0.636652 0.986999 0.0921645
0.829679 0.979461 0.0847181
0.980804 0.980804 0.0860151
1 1 0.105943
0.101564 1 0.118441
0.150881 1 0.150881
0.236698 1 0.173739
0.357519 1 0.185153
0.519371 1 0.182086
0.710826 1 0.166506
0.891554 1 0.146685
1 1 0.129152
1 1 0.12871
0.0581216 0.0581216 0.140444
0.0742962 0.0568856 0.139376
0.128054 0.0453651 0.128054
0.220325 0.0252995 0.108202
0.359777 0 0.0796368
0.534463 0 0.0458839
0.703868 0 0.0163577
0.832151 0 0
0.882002 0 0.00576791
0.0565194 0.0740826 0.139574
0.0783703 0.0783703 0.143954
0.141512 0.0758068 0.141512
0.243366 0.0650645 0.130861
0.391104 0.0441749 0.110079
0.572488 0.0168765 0.082887
0.748119 0 0.0598917
0.882429 0 0.0502937
0.939239 0 0.0631876
0.0471199 0.130587 0.130587
0.0763561 0.141924 0.141924
0.145647 0.145647 0.145647
0.253971 0.141573 0.141573
0.408316 0.127626 0.127626
0.596735 0.107668 0.107668
0.779522 0.0920119 0.0920119
0.922133 0.0899367 0.0899367
0.987854 0.111406 0.111406
0.0268711 0.223194 0.110567
0.0633707 0.240986 0.128832
0.139712 0.251804 0.139712
0.255512 0.255512 0.143404
0.41735 0.249683 0.137575
0.614069 0.238193 0.126085
0.80592 0.231281 0.119158
0.957748 0.237522 0.125444
1 0.266346 0.154604
0 0.355886 0.0757153
0.0373541 0.381903 0.102495
0.122042 0.401205 0.122042
0.246326 0.413474 0.13434
0.416281 0.416281 0.137133
0.621363 0.412985 0.133806
0.8206 0.413535 0.134401
0.979278 0.425727 0.146899
1 0.458762 0.181048
0 0.528817 0.04094
0.0107271 0.562585 0.0755627
0.103075 0.589761 0.103075
0.234257 0.609216 0.122652
0.409827 0.618051 0.131502
0.619226 0.619226 0.132677
0.821363 0.62237 0.135897
0.98146 0.634745 0.149096
1 0.664439 0.181262
0 0.723003 0.0373999
0.0129549 0.761913 0.0771954
0.108446 0.792706 0.108446
0.240528 0.813809 0.12987
0.415702 0.823194 0.139284
0.622782 0.822492 0.138598
0.82208 0.82208 0.138216
0.978882 0.830503 0.146685
1 0.85539 0.172778
0.000213626 0.913222 0.0809491
0.0552224 0.950301 0.118395
0.147387 0.979232 0.147387
0.275242 0.99765 0.165789
0.444587 1 0.170153
0.644343 0.994705 0.16286
0.836683 0.986481 0.15465
0.986831 0.986831 0.155001
1 1 0.173358
0.110292 1 0.190997
0.158862 1 0.221942
0.244144 1 0.244144
0.364218 1 0.254841
0.525185 1 0.250874
0.715068 1 0.233707
0.892241 1 0.210285
1 1 0.191135
1 1 0.189929
0.0509804 0.0509804 0.245319
0.0668803 0.0494698 0.244068
0.121141 0.0383764 0.233234
0.214435 0.0193179 0.214435
0.354925 0 0.186923
0.530495 0 0.154177
0.70045 0 0.125383
0.829221 0 0.109621
0.879942 0 0.116014
0.0508278 0.0683604 0.245914
0.0739757 0.0739757 0.251896
0.137774 0.0720226 0.250217
0.240208 0.0618143 0.240208
0.38854 0.0414893 0.220096
0.570611 0.0148775 0.193713
0.74699 0 0.171618
0.88217 0 0.162997
0.939712 0 0.176226
0.0440528 0.127581 0.24007
0.0740215 0.13962 0.251911
0.143969 0.143969 0.256321
0.252796 0.140383 0.252796
0.408209 0.127459 0.239963
0.597574 0.108461 0.221012
0.781262 0.0937057 0.206195
0.92462 0.0924239 0.204791
0.991073 0.114626 0.226734
0.0262608 0.222644 0.222644
0.063447 0.241093 0.241093
0.140612 0.252705 0.252705
0.257221 0.257221 0.257221
0.420233 0.252552 0.252552
0.617823 0.241932 0.241932
0.810422 0.235767 0.235767
0.962982 0.242741 0.242741
1 0.272343 0.272343
0 0.358038 0.190051
0.0403143 0.38471 0.217441
0.12604 0.405203 0.238041
0.251057 0.418204 0.251057
0.421897 0.421897 0.254734
0.627573 0.419211 0.252033
0.827329 0.420249 0.253101
0.986419 0.432868 0.265873
1 0.466239 0.299825
0 0.533913 0.158114
0.0166476 0.568521 0.193286
0.109636 0.596323 0.221286
0.241184 0.616129 0.241184
0.417121 0.625345 0.250385
0.626703 0.626703 0.251743
0.828763 0.629755 0.254856
0.988144 0.641489 0.267048
1 0.671107 0.298054
0 0.730144 0.156176
0.0203708 0.769314 0.195727
0.115923 0.800183 0.226795
0.247913 0.821195 0.247913
0.422492 0.829984 0.256703
0.629221 0.828931 0.25565
0.827863 0.827863 0.254566
0.983948 0.835569 0.262272
1 0.859709 0.286748
0.00733959 0.920348 0.198734
0.0619059 0.956954 0.234638
0.154177 0.986053 0.263706
0.280903 1 0.280903
0.449439 1 0.284443
0.648447 0.99884 0.276402
0.84007 0.989868 0.267384
0.989334 0.989334 0.266865
1 1 0.283268
0.115587 1 0.306859
0.163409 1 0.335973
0.247883 1 0.357214
0.367117 1 0.367117
0.52697 1 0.36202
0.715206 1 0.343206
0.889281 1 0.316609
1 1 0.295766
1 1 0.293767
0.0397345 0.0397345 0.401373
0.0555734 0.0381476 0.400259
0.110307 0.027451 0.390097
0.204807 0.00959792 0.372702
0.346563 0 0.346563
0.522805 0 0.314611
0.693278 0 0.286503
0.822538 0 0.271397
0.873945 0 0.278126
0.0412757 0.0588846 0.4047
0.0657054 0.0657054 0.411795
0.130175 0.0643931 0.41091
0.233158 0.0547036 0.401526
0.382315 0.0351415 0.382315
0.564996 0.00914015 0.356664
0.741924 0 0.335286
0.878004 0 0.327672
0.936477 0 0.341344
0.037171 0.120745 0.401587
0.0679332 0.133562 0.413931
0.138643 0.138643 0.41915
0.248173 0.135729 0.416388
0.404318 0.123522 0.404318
0.594507 0.105333 0.386252
0.778866 0.0912795 0.372076
0.923461 0.0912642 0.371801
0.990768 0.114321 0.394095
0.0219272 0.218387 0.386831
0.0599374 0.237598 0.405509
0.137865 0.249973 0.417609
0.255161 0.255161 0.422812
0.419242 0.251545 0.419242
0.617823 0.241932 0.409674
0.811109 0.236439 0.40415
0.964584 0.244358 0.411872
1 0.274556 0.441413
0 0.356573 0.356573
0.0396277 0.384207 0.384207
0.126192 0.405356 0.405356
0.251957 0.419104 0.419104
0.423835 0.423835 0.423835
0.630152 0.421775 0.421775
0.830213 0.423148 0.423148
0.989715 0.436164 0.436164
1 0.469734 0.469734
0 0.53521 0.327001
0.0186923 0.570565 0.362264
0.112383 0.599069 0.390814
0.244007 0.618967 0.410742
0.420539 0.628763 0.420539
0.630167 0.630167 0.421942
0.831708 0.632715 0.424491
0.991165 0.644511 0.436423
1 0.673579 0.466239
0 0.73341 0.326223
0.0238804 0.772808 0.365454
0.119387 0.803632 0.396201
0.251164 0.82446 0.416968
0.425422 0.832914 0.425422
0.631601 0.831312 0.423819
0.829465 0.829465 0.421958
0.984405 0.836011 0.428504
1 0.8598 0.452094
0.0102083 0.923201 0.367376
0.0646677 0.959716 0.402548
0.156069 0.987915 0.430472
0.28246 1 0.447471
0.44976 1 0.44976
0.648188 0.998596 0.441108
0.838987 0.9888 0.431189
0.987213 0.987213 0.429664
1 1 0.444312
0.116625 1 0.473686
0.163882 1 0.501503
0.247501 1 0.521752
0.365743 1 0.530694
0.523919 1 0.523919
0.709682 1 0.502617
0.881727 1 0.473915
1 1 0.451759
1 1 0.44918
0.0254063 0.0254063 0.595544
0.0415198 0.0240787 0.594583
0.0969253 0.0140078 0.58497
0.192416 0 0.568475
0.335515 0 0.543664
0.512489 0 0.512489
0.683436 0 0.484932
0.813336 0 0.470573
0.865293 0 0.477714
0.0294652 0.0470893 0.601205
0.0547189 0.0547189 0.609125
0.119768 0.0539559 0.608835
0.223499 0.0449531 0.600168
0.373449 0.026154 0.581765
0.556909 0.000915541 0.556909
0.734493 0 0.536294
0.871229 0 0.529397
0.930465 0 0.543648
0.0276036 0.111223 0.600381
0.0590524 0.124697 0.613291
0.130541 0.130541 0.619287
0.241016 0.128557 0.617456
0.397971 0.117128 0.60621
0.588937 0.0997024 0.588937
0.774044 0.0864271 0.575509
0.919539 0.0873426 0.57612
0.987823 0.111391 0.599359
0.0148318 0.211353 0.588144
0.0537881 0.231495 0.607538
0.132631 0.244739 0.620569
0.250721 0.250721 0.626566
0.41561 0.247898 0.623774
0.615045 0.239139 0.615045
0.809216 0.234516 0.610422
0.963546 0.243336 0.619104
1 0.274098 0.649241
0 0.35256 0.560708
0.0364233 0.381018 0.589319
0.123735 0.402914 0.611292
0.250233 0.417395 0.625757
0.422889 0.422889 0.631266
0.629908 0.42153 0.629908
0.830182 0.423102 0.631479
0.990127 0.436576 0.644892
1 0.470207 0.678325
0 0.533974 0.533974
0.0179751 0.569848 0.569848
0.111986 0.598672 0.598672
0.244282 0.619242 0.619242
0.421027 0.629252 0.629252
0.630579 0.630579 0.630579
0.831876 0.632883 0.632883
0.991043 0.644388 0.644388
1 0.672969 0.672969
0 0.733745 0.534798
0.0243839 0.773312 0.573983
0.119799 0.804028 0.604547
0.250843 0.824125 0.624445
0.42504 0.832547 0.632837
0.630686 0.830427 0.630686
0.827741 0.827741 0.62797
0.982177 0.833829 0.634119
1 0.856504 0.65597
0.0102083 0.923201 0.575189
0.0641489 0.959182 0.60914
0.15491 0.986755 0.636378
0.280644 1 0.652735
0.447211 1 0.654307
0.64477 0.995193 0.64477
0.834607 0.984421 0.63386
0.981186 0.981186 0.630701
1 0.99379 0.642939
0.114321 1 0.679133
0.160876 1 0.705608
0.243778 1 0.725078
0.361013 1 0.733028
0.517754 1 0.724834
0.699931 1 0.699931
0.870329 1 0.669566
0.997147 1 0.646647
1 1 0.643717
0.0117342 0.0117342 0.780743
0.0283055 0.0108339 0.78027
0.0847944 0.00178531 0.771725
0.181308 0 0.756191
0.325292 0 0.732143
0.5028 0 0.701366
0.674449 0 0.674449
0.805127 0 0.660883
0.857725 0 0.668894
0.0188296 0.0364843 0.789425
0.0447242 0.0447242 0.797894
0.110338 0.04448 0.798016
0.21471 0.0361028 0.789899
0.365393 0.0179904 0.772091
0.549538 0 0.747814
0.728161 0 0.728161
0.86566 0 0.722072
0.925521 0 0.73727
0.019028 0.102449 0.789868
0.051133 0.116808 0.804135
0.123201 0.123201 0.810636
0.234668 0.122179 0.80972
0.392599 0.111727 0.799374
0.584314 0.0950179 0.782788
0.770397 0.0827344 0.770397
0.916609 0.0844129 0.771847
0.985687 0.109255 0.796033
0.00877394 0.205356 0.780575
0.0484474 0.226184 0.801022
0.127977 0.240085 0.814725
0.247349 0.247349 0.821973
0.413108 0.245396 0.820066
0.613321 0.237415 0.812116
0.808118 0.233433 0.808118
0.963302 0.243091 0.817624
1 0.27451 0.848554
0 0.349355 0.756237
0.034165 0.37879 0.785809
0.122026 0.401221 0.808286
0.249622 0.41677 0.82385
0.422873 0.422873 0.829938
0.630121 0.421759 0.828824
0.831144 0.424079 0.831144
0.991302 0.437751 0.844877
1 0.471275 0.878584
0 0.5337 0.732479
0.018204 0.569955 0.768826
0.112566 0.599268 0.798199
0.245274 0.620233 0.819211
0.422187 0.630411 0.829389
0.631525 0.631525 0.830503
0.832593 0.6336 0.832593
0.991272 0.644617 0.843839
1 0.672663 0.872908
0 0.734844 0.734844
0.0254826 0.774395 0.774395
0.120577 0.804807 0.804807
0.251408 0.824704 0.824704
0.42504 0.832547 0.832547
0.630014 0.829755 0.829755
0.826307 0.826307 0.826307
0.97995 0.831556 0.831556
1 0.853574 0.853574
0.0106813 0.923644 0.775311
0.0640116 0.95903 0.809583
0.153994 0.985824 0.836133
0.278798 1 0.85156
0.444724 1 0.852491
0.641535 0.991958 0.842237
0.830472 0.980301 0.830472
0.975448 0.975448 0.825681
1 0.984558 0.834546
0.112459 1 0.877012
0.157992 1 0.903319
0.240421 1 0.922637
0.35613 1 0.928862
0.511238 1 0.91902
0.690333 1 0.891051
0.859007 1 0.859007
0.985153 1 0.835386
1 1 0.832364
0.00198367 0.00198367 0.916945
0.019028 0.00154116 0.91664
0.0767834 0 0.908995
0.174624 0 0.894545
0.319295 0 0.870893
0.497368 0 0.840452
0.669596 0 0.813886
0.800916 0 0.800916
0.854246 0 0.8103
0.0122072 0.0298924 0.927779
0.0388037 0.0388037 0.936767
0.105058 0.0391699 0.93724
0.210208 0.0315251 0.929656
0.361578 0.0140536 0.912291
0.546395 0 0.888472
0.725887 0 0.869444
0.864271 0 0.864271
0.92491 0 0.881132
0.014725 0.0984512 0.930617
0.0474861 0.113191 0.945373
0.120272 0.120272 0.952468
0.232486 0.119966 0.952163
0.391272 0.110338 0.942519
0.583871 0.0945296 0.926696
0.771008 0.0833143 0.915496
0.918044 0.0858473 0.918044
0.987762 0.111345 0.943603
0.00704967 0.203708 0.92311
0.047364 0.225132 0.945113
0.127642 0.23975 0.959899
0.247929 0.247929 0.968078
0.41474 0.247013 0.967132
0.615503 0.239582 0.959686
0.811368 0.236683 0.956802
0.967117 0.246906 0.967117
1 0.278782 0.999435
0 0.350378 0.902266
0.0357366 0.380377 0.933242
0.124636 0.40383 0.957015
0.253071 0.420249 0.973465
0.426978 0.426978 0.980179
0.634546 0.426184 0.979355
0.835966 0.428901 0.982116
0.996262 0.442725 0.996262
1 0.476051 1
0 0.537316 0.881651
0.0224155 0.574304 0.919646
0.117128 0.603815 0.949508
0.250141 0.625086 0.970916
0.42707 0.635309 0.981125
0.635981 0.635981 0.981811
0.837018 0.63801 0.983917
0.995071 0.648402 0.995071
1 0.675715 1
0 0.739788 0.886549
0.0302739 0.779171 0.926833
0.125017 0.809232 0.957321
0.255589 0.828885 0.977218
0.428672 0.836179 0.984527
0.632868 0.832609 0.980972
0.828214 0.828214 0.976577
0.981155 0.832761 0.981155
1 0.854047 1
0.0145571 0.927535 0.927535
0.0673533 0.962371 0.962371
0.156634 0.988479 0.988479
0.280308 1 1
0.445548 1 1
0.64152 0.991958 0.991958
0.829404 0.979232 0.979232
0.972717 0.972717 0.972717
1 0.978668 0.978668
0.114046 1 1
0.15874 1 1
0.239796 1 1
0.354284 1 1
0.506706 1 1
0.683818 1 1
0.851164 1 1
0.976761 1 0.976761
1 1 0.973724
0 0 0.958984
0.0175021 0 0.959289
0.0762341 0 0.952514
0.175402 0 0.939239
0.32076 0 0.916152
0.499382 0 0.886152
0.672374 0 0.860288
0.804257 0 0.847929
0.858137 0 0.858137
0.0130922 0.030808 0.972641
0.0402075 0.0402075 0.98204
0.107256 0.0413214 0.983169
0.213214 0.0344549 0.976303
0.365377 0.0177462 0.959609
0.55108 0 0.936477
0.731121 0 0.918059
0.870176 0 0.913588
0.931487 0 0.931487
0.017731 0.101503 0.977417
0.051133 0.116854 0.992966
0.124971 0.124971 1
0.238025 0.125475 1
0.397589 0.116609 0.992569
0.590982 0.101595 0.977508
0.778927 0.0912337 0.967224
0.926925 0.094728 0.97084
0.99736 0.120928 0.99736
0.0127871 0.210254 0.972717
0.0540322 0.232242 0.995865
0.135653 0.247944 1
0.256962 0.256962 1
0.424674 0.25658 1
0.62678 0.250477 1
0.823774 0.248768 1
0.980087 0.260304 1
1 0.291829 1
0 0.358724 0.95491
0.0450446 0.38941 0.986893
0.134554 0.41355 1
0.26363 0.430686 1
0.438102 0.438102 1
0.646067 0.43772 1
0.852338 0.44564 1
1 0.459297 1
1 0.490791 1
0 0.554238 0.938796
0.0353704 0.589883 0.977203
0.13167 0.620142 1
0.265492 0.641642 1
0.44303 0.651164 1
0.652079 0.652079 1
0.852613 0.65391 1
1 0.661097 1
1 0.686961 1
0 0.759716 0.946929
0.044358 0.796185 0.986114
0.13959 0.825666 1
0.270619 0.844648 1
0.443763 0.850919 1
0.647379 0.846265 1
0.841459 0.841459 1
0.991562 0.844724 1
1 0.862119 1
0.0263676 0.939696 0.985306
0.0790112 0.974578 1
0.167926 0.999924 1
0.291752 1 1
0.456794 1 1
0.65185 1 1
0.837903 0.986465 1
0.976852 0.976852 1
1 0.978973 1
0.126085 1 1
0.167941 1 1
0.248478 1 1
0.362036 1 1
0.510796 1 1
0.686061 1 1
0.852506 1 1
0.976837 1 1
1 1 1
