EOSHD C-LOG-and-Film-Profiles + LUT/C-LOG-and-Film-Profiles/LUT CINE 1 for Canon LOG.cube
TITLE "Generate by Resolve"
LUT_3D_SIZE 9
0 0 0
0.0294347 0 0.00593576
0.127108 0 0.0102388
0.319814 0 0.0135958
0.52874 0 0.0173953
0.722118 0 0.0231022
0.9131 0 0.032517
1 0 0.0497444
1 0 0.0746929
0.000747692 0.0241093 0
0.0294041 0.0222934 0
0.130098 0.00184634 0.00169375
0.331258 0 0.0135042
0.555764 0 0.0328832
0.769772 0 0.059205
0.98146 0 0.0893416
1 0 0.122698
1 0 0.159396
0 0.0883803 0
0.0146792 0.104265 0
0.136141 0.104585 0
0.356588 0.0793927 0
0.595972 0.0526589 0.0253605
0.820584 0.0337987 0.0622873
1 0.019501 0.101976
1 0.0150301 0.143404
1 0.0400854 0.185901
0 0.242802 0
0.00425727 0.271702 0
0.135973 0.282277 0
0.365774 0.266423 0
0.612573 0.247105 0
0.84181 0.232868 0
1 0.220142 0.0369573
1 0.21387 0.076585
1 0.233677 0.113832
0 0.434272 0
0.019379 0.469612 0
0.155016 0.484108 0
0.384939 0.468376 0
0.628351 0.445686 0
0.852369 0.42623 0
1 0.407691 0
1 0.397803 0
1 0.416876 0.0240024
0 0.630671 0
0.0434272 0.661692 0
0.173159 0.670283 0
0.398077 0.649546 0
0.638819 0.624186 0
0.862806 0.6047 0
1 0.587076 0
1 0.577173 0
1 0.59585 0
0 0.807874 0
0.0588388 0.837659 0
0.188952 0.846647 0
0.414572 0.826627 0
0.655268 0.801205 0
0.878386 0.78085 0
1 0.761608 0
1 0.749355 0
1 0.76527 0
0.0325475 0.976303 0
0.0925765 1 0
0.221592 1 0
0.445045 0.991531 0
0.683528 0.963897 0
0.903532 0.940429 0
1 0.917647 0
1 0.901518 0
1 0.913191 0
0.119066 1 0
0.176364 1 0
0.302068 1 0
0.521767 1 0
0.756207 1 0
0.971923 1 0
1 1 0
1 1 0
1 0.99585 0
0 0.00207523 0.033875
0.0196994 0.000869764 0.0396429
0.11696 0 0.0435492
0.309651 0 0.0468757
0.519127 0 0.0512245
0.713634 0 0.0580606
0.906828 0 0.069688
1 0 0.0891432
1 0 0.11606
0 0.0257877 0.0226749
0.0199283 0.0244755 0.028336
0.12192 0.00534066 0.0369573
0.326055 0 0.0517433
0.553063 0 0.0736248
0.768338 0 0.101228
0.980972 0 0.132296
1 0 0.166705
1 0 0.204135
0 0.095201 0
0.0122988 0.113542 0
0.13521 0.115312 0.00250248
0.35671 0.0911574 0.0346532
0.596979 0.0653239 0.06981
0.822416 0.0472725 0.107561
1 0.0337224 0.147997
1 0.0296941 0.189868
1 0.0543832 0.231998
0 0.254902 0
0.00553903 0.284627 0
0.138216 0.296178 0
0.368505 0.280812 0
0.615167 0.261357 0.000183108
0.844709 0.247425 0.0420539
1 0.234089 0.0827039
1 0.226963 0.121477
1 0.246265 0.158221
0 0.448859 0
0.0223545 0.484215 0
0.157748 0.498482 0
0.387121 0.482216 0
0.62945 0.458412 0
0.853117 0.438621 0
1 0.420218 0
1 0.410361 0.0318456
1 0.429572 0.0684977
0 0.644007 0
0.0445716 0.674479 0
0.173877 0.682658 0
0.398962 0.662089 0
0.639857 0.636866 0
0.863859 0.617395 0
1 0.599741 0
1 0.589639 0
1 0.608209 0
0 0.820386 0
0.0598917 0.85037 0
0.190005 0.859342 0
0.41532 0.839017 0
0.656077 0.813657 0
0.879011 0.793118 0
1 0.77351 0
1 0.760983 0
1 0.776471 0
0.0334936 0.988907 0
0.0933089 1 0
0.222049 1 0
0.445212 1 0
0.683391 0.975418 0
0.903014 0.951568 0
1 0.928054 0
1 0.911681 0
1 0.922866 0
0.119097 1 0
0.176013 1 0
0.30135 1 0
0.520668 1 0
0.754635 1 0
0.969787 1 0
1 1 0
1 1 0
1 0.999298 0
0 0.00453193 0.168246
0 0.00274662 0.173449
0.0703899 0 0.177218
0.263233 0 0.180713
0.473243 0 0.185595
0.669017 0 0.193698
0.865171 0 0.208286
1 0 0.230198
1 0 0.25835
0 0.0279698 0.156771
0 0.027451 0.163241
0.0780346 0.00978103 0.173327
0.284764 0 0.190707
0.514427 0 0.215244
0.730968 0 0.244114
0.944625 0 0.276204
1 0 0.311513
1 0 0.349767
0 0.103319 0.0876936
0 0.123552 0.114916
0.0979934 0.126436 0.145556
0.320714 0.103502 0.178927
0.561715 0.0783856 0.214801
0.78822 0.0614176 0.25362
1 0.0483558 0.29456
1 0.0443885 0.336477
1 0.0691997 0.378729
0 0.267216 0
0 0.298192 0.0238956
0.104326 0.310613 0.0640726
0.335027 0.295659 0.105425
0.58172 0.276234 0.14699
0.811032 0.262089 0.188632
1 0.248203 0.228733
1 0.23978 0.266209
1 0.25893 0.3028
0 0.463386 0
0 0.499046 0
0.123766 0.51284 0
0.352514 0.495933 0.0326696
0.594171 0.471489 0.0692149
0.817411 0.45124 0.104768
1 0.433051 0.140551
1 0.423087 0.176501
1 0.442542 0.213382
0 0.657115 0
0.0090486 0.687282 0
0.138247 0.695354 0
0.36318 0.674632 0
0.604486 0.649821 0
0.828504 0.630365 0.0328985
1 0.612604 0.0691234
1 0.602365 0.104784
1 0.620752 0.140612
0 0.833295 0
0.0245212 0.86334 0
0.15462 0.872312 0
0.379721 0.851743 0
0.620401 0.826307 0
0.843061 0.805508 0
1 0.785534 0.00221256
1 0.772778 0.0353552
1 0.787869 0.0678874
0 1 0
0.0575875 1 0
0.185962 1 0
0.408835 1 0
0.646632 0.986999 0
0.865904 0.962783 0
1 0.938827 0
1 0.922026 0
1 0.932662 0.0118563
0.0826429 1 0
0.139132 1 0
0.263783 1 0
0.482918 1 0
0.716472 1 0
0.93077 1 0
1 1 0
1 1 0
1 1 0.00682078
0 0.00714122 0.386252
0 0.0047303 0.390814
0 0 0.394583
0.186709 0 0.398489
0.397513 0 0.404166
0.594675 0 0.413657
0.793484 0 0.4309
0.972503 0 0.455573
1 0 0.48481
0 0.0304875 0.37467
0 0.0311894 0.382376
0.00515755 0.0158083 0.394751
0.214099 0 0.414328
0.445563 0 0.440681
0.663386 0 0.470832
0.878264 0 0.504143
1 0 0.540398
1 0 0.579477
0 0.112795 0.312566
0 0.13434 0.341085
0.0307927 0.13814 0.372656
0.25452 0.116228 0.407034
0.496574 0.0921492 0.443946
0.723949 0.076051 0.48365
0.946853 0.0634165 0.525002
1 0.0594034 0.566873
1 0.0840925 0.609018
0 0.280339 0.214435
0 0.3122 0.2533
0.0401312 0.325338 0.294194
0.271061 0.310597 0.33576
0.517861 0.291295 0.377432
0.746731 0.276692 0.418631
0.967758 0.262181 0.458106
1 0.253086 0.494896
1 0.271763 0.531029
0 0.478523 0.139605
0 0.514076 0.182147
0.0592813 0.527276 0.223102
0.286778 0.509102 0.261234
0.528313 0.48452 0.297642
0.751415 0.464149 0.333074
0.968688 0.445884 0.36878
1 0.436271 0.405066
1 0.455726 0.441962
0 0.670497 0.0805829
0 0.70013 0.117205
0.072343 0.70837 0.153201
0.297383 0.687755 0.188891
0.53875 0.663005 0.225132
0.762768 0.643549 0.261479
0.980102 0.62533 0.297246
1 0.615228 0.333043
1 0.633371 0.368612
0 0.846464 0.0167086
0 0.876509 0.0537423
0.0888533 0.885451 0.090425
0.313832 0.864775 0.12607
0.554314 0.839155 0.161425
0.776684 0.818036 0.196109
0.991745 0.797559 0.229618
1 0.784604 0.262547
1 0.799329 0.294728
0 1 0
0 1 0.0199741
0.119265 1 0.0544747
0.342031 1 0.087892
0.579385 0.998657 0.120119
0.798169 0.973968 0.151232
1 0.949645 0.180896
1 0.932433 0.209567
1 0.942336 0.236927
0.0157168 1 0.0430152
0.071809 1 0.0756237
0.195926 1 0.106371
0.414633 1 0.135714
0.647684 1 0.163638
0.860197 1 0.188479
1 1 0.205737
1 1 0.216907
1 1 0.225513
0 0.00949111 0.595209
0 0.00669871 0.599405
0 0 0.603159
0.113497 0 0.607599
0.325444 0 0.61442
0.524895 0 0.626184
0.725902 0 0.64564
0.906722 0 0.672099
0.996017 0 0.702724
0 0.0331121 0.583917
0 0.0351568 0.59295
0 0.0227512 0.608301
0.14786 0 0.630411
0.380575 0 0.658
0.599329 0 0.689097
0.815244 0 0.723445
1 0 0.76051
1 0 0.800702
0 0.122621 0.528984
0 0.145525 0.558892
0 0.150393 0.591516
0.191913 0.129305 0.626734
0.434821 0.106111 0.664515
0.662943 0.0907607 0.704967
0.886275 0.0785382 0.746731
1 0.0743572 0.788434
1 0.0986954 0.830228
0 0.293919 0.434638
0 0.326589 0.474296
0 0.3402 0.515663
0.210254 0.325505 0.557275
0.45716 0.306294 0.599054
0.685435 0.291096 0.639643
0.905455 0.275563 0.678111
1 0.266117 0.714549
1 0.284657 0.75053
0 0.493584 0.361288
0 0.528893 0.403586
0 0.541527 0.443961
0.22443 0.522469 0.481209
0.465446 0.497368 0.517098
0.688701 0.477134 0.552666
0.906004 0.4589 0.588418
1 0.449439 0.624842
1 0.468879 0.661738
0 0.683726 0.300435
0 0.712963 0.336645
0.00946059 0.721187 0.372641
0.234836 0.700908 0.408652
0.476219 0.676173 0.444907
0.700175 0.656657 0.481209
0.917418 0.638346 0.516869
1 0.628061 0.552468
1 0.645869 0.587732
0 0.859632 0.236484
0 0.889677 0.273518
0.025864 0.898161 0.309758
0.251041 0.877684 0.345586
0.491341 0.851865 0.380758
0.713176 0.830228 0.414923
0.928145 0.809644 0.448325
1 0.796246 0.480812
1 0.810529 0.512551
0 1 0.20351
0 1 0.23917
0.055848 1 0.273365
0.278294 1 0.306477
0.515282 1 0.338323
0.733318 0.984817 0.368688
0.944305 0.96025 0.398108
1 0.94255 0.426307
1 0.95079 0.451987
0 1 0.261372
0.00747692 1 0.293599
0.131228 1 0.32398
0.349462 1 0.352865
0.581964 1 0.38024
0.791562 1 0.402167
0.988418 1 0.417456
1 1 0.427405
1 1 0.43534
0 0.0115053 0.789899
0 0.00862135 0.793988
0 0 0.797909
0.0455177 0 0.802869
0.258747 0 0.810987
0.461173 0 0.825727
0.664683 0 0.847669
0.846754 0 0.875395
0.936996 0 0.906966
0 0.0363012 0.779782
0 0.039826 0.79028
0 0.029984 0.808209
0.0869917 0 0.832807
0.321126 0 0.861814
0.540917 0 0.893935
0.757733 0 0.929183
0.949981 0 0.967071
1 0 1
0 0.13283 0.731868
0 0.156832 0.76286
0 0.162921 0.796704
0.1346 0.14258 0.83267
0.378546 0.120424 0.871504
0.607156 0.105562 0.912428
0.830365 0.0932021 0.95407
1 0.0893263 0.996078
1 0.113069 1
0 0.307652 0.641047
0 0.341192 0.681559
0 0.355215 0.723339
0.154696 0.340536 0.764981
0.401389 0.321111 0.806531
0.629099 0.305348 0.846571
0.847974 0.288685 0.883879
1 0.278935 0.920027
1 0.297597 0.956146
0 0.508583 0.568933
0 0.543404 0.610758
0 0.555291 0.650401
0.167056 0.535683 0.687083
0.407645 0.510155 0.72256
0.631098 0.490135 0.758328
0.848493 0.471977 0.794156
1 0.462562 0.83064
1 0.481971 0.867491
0 0.696681 0.50605
0 0.725826 0.542184
0 0.734066 0.578195
0.177371 0.714031 0.614435
0.418753 0.689296 0.650706
0.642451 0.66952 0.686732
0.859709 0.65124 0.722423
1 0.640742 0.757824
1 0.658259 0.792782
0 0.87274 0.442267
0 0.902724 0.47924
0 0.911177 0.51545
0.193256 0.890486 0.551064
0.43328 0.864408 0.585962
0.65478 0.84242 0.619791
0.869505 0.821591 0.652934
1 0.807797 0.685039
1 0.821408 0.716091
0 1 0.408957
0 1 0.444053
0 1 0.478141
0.219425 1 0.510857
0.456046 1 0.542351
0.673701 0.995804 0.572335
0.884215 0.970764 0.601282
1 0.952499 0.628916
1 0.957778 0.651637
0 1 0.465644
0 1 0.497124
0.0713664 1 0.527367
0.289189 1 0.55584
0.520668 1 0.582193
0.727672 1 0.601526
0.922148 1 0.61445
1 1 0.623514
1 1 0.631159
0 0.0134127 0.971435
0 0.0104829 0.975509
0 0 0.979858
0 0 0.985611
0.197482 0 0.995178
0.402502 0 1
0.608713 0 1
0.79202 0 1
0.883284 0 1
0 0.0399939 0.963104
0 0.0458381 0.975952
0 0.0382086 0.996078
0.031281 0.00839246 1
0.266545 0 1
0.487572 0 1
0.70515 0 1
0.898405 0 1
0.998535 0 1
0 0.143542 0.922225
0 0.168475 0.954147
0 0.175402 0.98883
0.0824903 0.156298 1
0.327291 0.134981 1
0.556298 0.120516 1
0.779538 0.108217 1
0.975692 0.104112 1
1 0.127321 1
0 0.321584 0.834623
0 0.355825 0.875853
0 0.369863 0.917632
0.103838 0.355505 0.959579
0.350057 0.335607 1
0.577127 0.319203 1
0.795346 0.301869 1
0.985412 0.291676 1
1 0.310552 1
0 0.523507 0.763516
0 0.557733 0.80473
0 0.568475 0.843229
0.114168 0.548623 0.879667
0.35465 0.522988 0.915022
0.577905 0.50277 0.950607
0.795758 0.485069 0.986893
0.986603 0.475654 1
1 0.494972 1
0 0.709438 0.698451
0 0.73875 0.734752
0 0.747112 0.770871
0.124636 0.727123 0.807172
0.366018 0.702388 0.843442
0.589441 0.682322 0.879179
0.806668 0.664012 0.914839
0.99617 0.653254 0.949981
1 0.67042 0.984588
0 0.885847 0.635004
0 0.915679 0.671839
0 0.924117 0.708034
0.140169 0.903227 0.74345
0.379873 0.876814 0.778027
0.601022 0.85449 0.811505
0.815381 0.83331 0.844297
1 0.81915 0.876036
1 0.832273 0.9066
0 1 0.601221
0 1 0.635981
0 1 0.669795
0.165179 1 0.702083
0.40116 1 0.732937
0.618601 1 0.762692
0.828702 0.981064 0.791226
1 0.961975 0.818036
1 0.964446 0.837964
0 1 0.656687
0 1 0.687816
0.0160678 1 0.71754
0.233387 1 0.74551
0.463066 1 0.770062
0.667933 1 0.787243
0.860471 1 0.798215
1 1 0.806317
1 1 0.813886
0 0.0152285 1
0 0.0122988 1
0 0 1
0 0 1
0.149264 0 1
0.356481 0 1
0.564477 0 1
0.749111 0 1
0.841596 0 1
0 0.0438087 1
0 0.0526436 1
0 0.0475319 1
0 0.0189975 1
0.224002 0 1
0.446052 0 1
0.664622 0 1
0.858808 0 1
0.959335 0 1
0 0.154589 1
0 0.180606 1
0 0.188327 1
0.042237 0.170108 1
0.287785 0.149538 1
0.517067 0.135363 1
0.740368 0.123095 1
0.936049 0.118547 1
1 0.141115 1
0 0.335836 0.996429
0 0.370535 1
0 0.384802 1
0.0646372 0.370352 1
0.310246 0.349844 1
0.53611 0.33225 1
0.754162 0.314748 1
0.944076 0.304417 1
1 0.323278 1
0 0.538155 0.925719
0 0.571633 0.966186
0 0.581674 1
0.0727855 0.561303 1
0.31342 0.535821 1
0.536797 0.515709 1
0.754696 0.49807 1
0.945525 0.488655 1
1 0.507515 1
0 0.722118 0.858701
0 0.751293 0.89485
0 0.760098 0.931426
0.0835737 0.740124 0.967742
0.324926 0.715343 1
0.548226 0.695186 1
0.765255 0.676677 1
0.954452 0.665614 1
1 0.682216 1
0 0.898848 0.795575
0 0.928405 0.83212
0 0.936858 0.868345
0.0986648 0.915785 0.903563
0.337804 0.888808 0.937575
0.558907 0.866438 0.970993
0.772808 0.8448 1
0.958465 0.830198 1
1 0.842924 1
0 1 0.761181
0 1 0.795666
0 1 0.82916
0.122545 1 0.861067
0.357946 1 0.89134
0.574975 1 0.920699
0.784588 0.991012 0.948745
0.963989 0.970153 0.973785
1 0.970504 0.991577
0 1 0.815396
0 1 0.846204
0 1 0.875471
0.18909 1 0.902831
0.415946 1 0.924559
0.618753 1 0.939696
0.810101 1 0.949493
0.971954 1 0.95697
1 1 0.964431
0 0.0167849 1
0 0.0140383 1
0 0 1
0 0 1
0.136034 0 1
0.3458 0 1
0.555032 0 1
0.740597 0 1
0.834119 0 1
0 0.048188 1
0 0.059556 1
0 0.0569009 1
0 0.0297856 1
0.216098 0.000915541 1
0.439033 0 1
0.658427 0 1
0.853361 0 1
0.954314 0 1
0 0.165545 1
0 0.192752 1
0 0.20145 1
0.0364691 0.184085 1
0.282475 0.163973 1
0.511772 0.149798 1
0.735225 0.137697 1
0.930312 0.132555 1
1 0.154177 1
0 0.350088 1
0 0.385092 1
0 0.399481 1
0.0593118 0.384787 1
0.304387 0.363729 1
0.52929 0.345174 1
0.746853 0.327184 1
0.936919 0.317006 1
1 0.335882 1
0 0.552285 0.993744
0 0.585016 1
0 0.594507 1
0.0654765 0.573724 1
0.306157 0.548287 1
0.529793 0.52845 1
0.747723 0.510842 1
0.938506 0.501366 1
1 0.520134 1
0 0.73463 0.925093
0 0.763943 0.961395
0 0.772854 0.998077
0.0766003 0.752895 1
0.317494 0.727672 1
0.540993 0.707698 1
0.757839 0.688991 1
0.946548 0.677455 1
1 0.693904 1
0 0.91136 0.861982
0 0.941054 0.89865
0 0.949294 0.934661
0.0910964 0.927947 0.969619
0.329946 0.900694 1
0.550729 0.878004 1
0.764263 0.855985 1
0.949126 0.840604 1
1 0.853117 1
0 1 0.826856
0 1 0.861295
0 1 0.894408
0.113787 1 0.925948
0.348806 1 0.955825
0.565362 1 0.984726
0.774426 1 1
0.950896 0.976822 1
1 0.975235 1
0 1 0.879927
0 1 0.910445
0 1 0.9393
0.178256 1 0.965637
0.402518 1 0.984771
0.60296 1 0.997543
0.793408 1 1
0.955001 1 1
1 1 1
